; generated by PrusaSlicer 2.5.0 on 2022-10-10 at 11:40:25 UTC


;
;

;
;
; 

; external perimeters extrusion width = 0.45mm
; perimeters extrusion width = 0.45mm
; infill extrusion width = 0.45mm
; solid infill extrusion width = 0.45mm
; top infill extrusion width = 0.40mm
; first layer extrusion width = 0.42mm

M73 P0 R191
M201 X2500 Y2500 Z400 E5000 ; sets maximum accelerations, mm/sec^2
M203 X180 Y180 Z12 E80 ; sets maximum feedrates, mm / sec
M204 P1250 R1250 T2500 ; sets acceleration (P, T) and retract acceleration (R), mm/sec^2
M205 X8.00 Y8.00 Z2.00 E10.00 ; sets the jerk limits, mm/sec
M205 S0 T0 ; sets the minimum extruding and travel feed rate, mm/sec
M107
;TYPE:Custom
M862.3 P "MINI" ; printer model check
G90 ; use absolute coordinates
M83 ; extruder relative mode
M104 S170 ; set extruder temp for bed leveling
M140 S60 ; set bed temp
M109 R170 ; wait for bed leveling temp
M190 S60 ; wait for bed temp
M204 T1250 ; set travel acceleration
G28 ; home all without mesh bed level
G29 ; mesh bed leveling 
M204 T2500 ; restore travel acceleration
M104 S215 ; set extruder temp
G92 E0
G1 Y-2 X179 F2400
G1 Z3 F720
M109 S215 ; wait for extruder temp

; intro line
G1 X170 F1000
G1 Z0.2 F720
G1 X110 E8 F900
G1 X40 E10 F700
G92 E0

M221 S95 ; set flow
G21 ; set units to millimeters
G90 ; use absolute coordinates
M83 ; use relative distances for extrusion
M900 K0.2 ; Filament gcode LA 1.5
; ; Filament gcode LA 1.0
M107
;LAYER_CHANGE
;Z:0.2
;HEIGHT:0.2
;BEFORE_LAYER_CHANGE
G92 E0.0
;0.2


G1 E-3.2 F4200
G1 Z.2 F720
;AFTER_LAYER_CHANGE
;0.2
G1 Z.4
G1 X25.015 Y10.693 F9000
G1 Z.2 F720
G1 E3.2 F2400
M204 P800
;TYPE:Skirt/Brim
;WIDTH:0.42
G1 F1200
G1 X26.06 Y9.817 E.04278
G1 X27 Y9.623 E.03008
G1 X153 Y9.623 E3.95064
G1 X154.307 Y10.015 E.04278
G1 X155.183 Y11.06 E.04278
G1 X155.377 Y12 E.03008
G1 X155.377 Y168 E4.89127
G1 X154.985 Y169.307 E.04278
M73 P0 R190
G1 X153.94 Y170.183 E.04278
G1 X153 Y170.377 E.03008
G1 X27 Y170.377 E3.95064
G1 X25.693 Y169.985 E.04278
G1 X24.817 Y168.94 E.04278
G1 X24.623 Y168 E.03008
G1 X24.623 Y12 E4.89127
G1 X24.997 Y10.75 E.0409
M204 P1000
; printing object needy.stl id:0 copy 1
G1 E-2.24 F4200
;WIPE_START
G1 F7200
G1 X26.06 Y9.817 E-.78411
G1 X26.286 Y9.77 E-.12789
;WIPE_END
G1 E-.048 F4200
G1 Z.4 F720
G1 X93.787 Y12.787 F9000
G1 Z.2 F720
G1 E3.2 F2400
M204 P800
;TYPE:Perimeter
;WIDTH:0.419999
G1 F1200
G1 X152.213 Y12.787 E1.8319
G1 X152.213 Y167.213 E4.84191
G1 X93.787 Y167.213 E1.8319
G1 X93.787 Y12.847 E4.84002
M204 P1000
G1 X93.41 Y12.41 F9000
M204 P800
;TYPE:External perimeter
G1 F1200
G1 X152.59 Y12.41 E1.85554
G1 X152.59 Y167.59 E4.86555
G1 X93.41 Y167.59 E1.85554
G1 X93.41 Y12.47 E4.86367
M204 P1000
G1 X93.778 Y12.567 F9000
G1 E-2.24 F4200
;WIPE_START
G1 F7200
G1 X95.056 Y12.468 E-.912
;WIPE_END
G1 E-.048 F4200
G1 Z.4 F720
G1 X101.643 Y19.85 F9000
G1 Z.2 F720
G1 E3.2 F2400
M204 P800
;TYPE:Perimeter
G1 F1200
G1 X101.311 Y20.274 E.0169
G1 X100.947 Y20.582 E.01496
G1 X100.497 Y20.827 E.01606
G1 X99.905 Y20.999 E.01934
G1 X99.253 Y21.022 E.02045
G1 X98.503 Y20.827 E.0243
G1 X98.053 Y20.582 E.01606
G1 X97.616 Y20.196 E.01828
G1 X97.331 Y19.813 E.01496
G1 X97.124 Y19.384 E.01496
G1 X97 Y18.923 E.01496
G1 X96.965 Y18.553 E.01164
G1 X97.02 Y17.973 E.01828
G1 X97.163 Y17.517 E.01496
G1 X97.388 Y17.097 E.01496
G1 X97.689 Y16.726 E.01496
G1 X98.053 Y16.418 E.01496
G1 X98.469 Y16.184 E.01496
G1 X98.937 Y16.029 E.01547
G1 X99.491 Y15.963 E.01748
G1 X100.027 Y16.02 E.0169
G1 X100.483 Y16.163 E.01496
G1 X100.903 Y16.388 E.01496
G1 X101.274 Y16.689 E.01496
G1 X101.599 Y17.084 E.01606
G1 X101.879 Y17.634 E.01934
G1 X102.03 Y18.411 E.02483
G1 X102 Y18.923 E.01606
G1 X101.864 Y19.421 E.01618
G1 X101.671 Y19.796 E.01325
M204 P1000
G1 X101.286 Y19.707 F9000
M204 P800
;TYPE:External perimeter
G1 F1200
G1 X101.062 Y19.991 E.01135
G1 X100.755 Y20.257 E.01274
G1 X100.392 Y20.465 E.01311
G1 X99.8 Y20.637 E.01934
G1 X99.253 Y20.645 E.01715
G1 X98.608 Y20.465 E.02099
G1 X98.216 Y20.237 E.01422
G1 X97.914 Y19.965 E.01274
G1 X97.667 Y19.642 E.01274
G1 X97.486 Y19.278 E.01274
G1 X97.376 Y18.887 E.01274
G1 X97.341 Y18.518 E.01164
G1 X97.382 Y18.078 E.01385
G1 X97.499 Y17.689 E.01274
G1 X97.686 Y17.328 E.01274
G1 X97.938 Y17.009 E.01274
G1 X98.245 Y16.743 E.01274
G1 X98.597 Y16.539 E.01274
G1 X98.985 Y16.403 E.01291
G1 X99.491 Y16.34 E.01598
G1 X99.922 Y16.382 E.01357
G1 X100.311 Y16.499 E.01274
G1 X100.672 Y16.686 E.01274
G1 X100.991 Y16.938 E.01274
G1 X101.263 Y17.256 E.01311
G1 X101.543 Y17.805 E.01934
M73 P0 R189
G1 X101.658 Y18.47 E.02117
G1 X101.618 Y18.922 E.01421
G1 X101.501 Y19.311 E.01274
G1 X101.321 Y19.658 E.01225
M204 P1000
G1 X101.45 Y20.03 F9000
G1 E-2.24 F4200
;WIPE_START
G1 F7200
G1 X101.062 Y19.991 E-.23378
G1 X100.755 Y20.257 E-.22523
G1 X100.392 Y20.465 E-.23168
G1 X100.009 Y20.576 E-.22131
;WIPE_END
G1 E-.048 F4200
G1 Z.4 F720
G1 X147.99 Y20.545 F9000
G1 Z.2 F720
G1 E3.2 F2400
M204 P800
;TYPE:Perimeter
G1 F1200
G1 X147.497 Y20.827 E.0178
G1 X146.905 Y20.999 E.01934
G1 X146.253 Y21.022 E.02045
G1 X145.503 Y20.827 E.0243
G1 X145.053 Y20.582 E.01606
G1 X144.664 Y20.251 E.01603
G1 X144.346 Y19.84 E.01629
G1 X144.124 Y19.384 E.01591
G1 X144 Y18.923 E.01496
G1 X143.965 Y18.553 E.01164
G1 X144.02 Y17.973 E.01828
G1 X144.163 Y17.517 E.01496
G1 X144.388 Y17.097 E.01496
G1 X144.689 Y16.726 E.01496
G1 X145.053 Y16.418 E.01496
G1 X145.469 Y16.184 E.01496
G1 X145.937 Y16.029 E.01547
G1 X146.491 Y15.963 E.01748
G1 X147.027 Y16.02 E.0169
G1 X147.483 Y16.163 E.01496
G1 X147.903 Y16.388 E.01496
G1 X148.274 Y16.689 E.01496
G1 X148.599 Y17.084 E.01606
G1 X148.879 Y17.634 E.01934
G1 X149.03 Y18.411 E.02483
G1 X149 Y18.923 E.01606
G1 X148.837 Y19.483 E.01828
G1 X148.612 Y19.903 E.01496
G1 X148.311 Y20.274 E.01496
G1 X148.036 Y20.507 E.0113
M204 P1000
G1 X147.731 Y20.271 F9000
M204 P800
;TYPE:External perimeter
G1 F1200
G1 X147.392 Y20.465 E.01225
G1 X146.8 Y20.637 E.01934
G1 X146.253 Y20.645 E.01715
G1 X145.608 Y20.465 E.02099
G1 X145.216 Y20.237 E.01422
G1 X144.914 Y19.965 E.01274
G1 X144.667 Y19.642 E.01274
G1 X144.486 Y19.278 E.01274
G1 X144.376 Y18.887 E.01274
G1 X144.341 Y18.518 E.01164
G1 X144.382 Y18.078 E.01385
G1 X144.499 Y17.689 E.01274
G1 X144.686 Y17.328 E.01274
G1 X144.938 Y17.009 E.01274
G1 X145.245 Y16.743 E.01274
G1 X145.597 Y16.539 E.01274
G1 X145.985 Y16.403 E.01291
G1 X146.491 Y16.34 E.01598
G1 X146.922 Y16.382 E.01357
G1 X147.311 Y16.499 E.01274
G1 X147.672 Y16.686 E.01274
G1 X147.991 Y16.938 E.01274
G1 X148.263 Y17.256 E.01311
G1 X148.543 Y17.805 E.01934
G1 X148.658 Y18.47 E.02117
G1 X148.618 Y18.922 E.01421
G1 X148.501 Y19.311 E.01274
G1 X148.314 Y19.672 E.01274
G1 X148.062 Y19.991 E.01274
G1 X147.779 Y20.236 E.01172
M204 P1000
G1 X147.766 Y20.66 F9000
G1 E-2.24 F4200
;WIPE_START
G1 F7200
G1 X147.392 Y20.465 E-.2494
G1 X146.8 Y20.637 E-.34183
G1 X146.253 Y20.645 E-.30306
G1 X146.222 Y20.636 E-.01771
;WIPE_END
G1 E-.048 F4200
G1 Z.4 F720
G1 X133.01 Y101.084 F9000
G1 Z.2 F720
G1 E3.2 F2400
M204 P800
;TYPE:Perimeter
G1 F1200
G1 X130.519 Y102.905 E.09673
G1 X127.671 Y104.186 E.0979
G1 X124.62 Y104.847 E.0979
G1 X121.498 Y104.86 E.0979
G1 X118.329 Y104.186 E.10158
G1 X115.481 Y102.905 E.0979
G1 X112.962 Y101.059 E.0979
G1 X110.952 Y98.827 E.09421
G1 X109.38 Y96.129 E.0979
G1 X108.403 Y93.163 E.0979
G1 X108.065 Y90.059 E.0979
G1 X108.379 Y86.953 E.0979
G1 X109.332 Y83.979 E.0979
G1 X110.882 Y81.269 E.0979
G1 X112.962 Y78.941 E.0979
G1 X115.481 Y77.095 E.0979
G1 X118.329 Y75.814 E.0979
G1 X121.498 Y75.14 E.10158
G1 X124.62 Y75.153 E.0979
G1 X127.671 Y75.814 E.0979
G1 X130.519 Y77.095 E.0979
G1 X133.038 Y78.941 E.0979
G1 X135.048 Y81.173 E.09421
G1 X136.62 Y83.871 E.0979
G1 X137.597 Y86.837 E.0979
G1 X137.935 Y89.941 E.0979
G1 X137.621 Y93.047 E.0979
G1 X136.668 Y96.021 E.0979
G1 X135.118 Y98.731 E.0979
G1 X133.053 Y101.043 E.09719
M204 P1000
G1 X132.77 Y100.793 F9000
M204 P800
;TYPE:External perimeter
G1 F1200
G1 X130.263 Y102.619 E.09723
G1 X127.481 Y103.854 E.09544
G1 X124.502 Y104.482 E.09544
G1 X121.458 Y104.478 E.09544
G1 X118.482 Y103.841 E.09544
G1 X115.703 Y102.6 E.09544
G1 X113.243 Y100.807 E.09544
G1 X111.232 Y98.574 E.09421
G1 X109.707 Y95.94 E.09544
G1 X108.762 Y93.047 E.09544
G1 X108.44 Y90.02 E.09544
G1 X108.754 Y86.992 E.09544
G1 X109.691 Y84.096 E.09544
G1 X111.209 Y81.458 E.09544
G1 X113.243 Y79.193 E.09544
G1 X115.703 Y77.4 E.09544
G1 X118.482 Y76.159 E.09544
G1 X121.498 Y75.518 E.09667
G1 X124.542 Y75.522 E.09544
G1 X127.518 Y76.159 E.09544
G1 X130.297 Y77.4 E.09544
G1 X132.757 Y79.193 E.09544
G1 X134.768 Y81.426 E.09421
G1 X136.293 Y84.06 E.09544
G1 X137.238 Y86.953 E.09544
G1 X137.56 Y89.98 E.09544
G1 X137.246 Y93.008 E.09544
G1 X136.309 Y95.904 E.09544
G1 X134.791 Y98.542 E.09544
G1 X132.81 Y100.749 E.09298
M204 P1000
G1 X132.853 Y101.185 F9000
G1 E-2.24 F4200
;WIPE_START
G1 F7200
G1 X131.483 Y101.723 E-.912
;WIPE_END
G1 E-.048 F4200
G1 Z.4 F720
G1 X98.44 Y163.793 F9000
G1 Z.2 F720
G1 E3.2 F2400
M204 P800
;TYPE:Perimeter
G1 F1200
G1 X98.053 Y163.582 E.01381
G1 X97.672 Y163.258 E.01569
G1 X97.331 Y162.813 E.01756
G1 X97.124 Y162.384 E.01496
G1 X97 Y161.923 E.01496
G1 X96.965 Y161.553 E.01164
G1 X97.02 Y160.973 E.01828
G1 X97.163 Y160.517 E.01496
G1 X97.388 Y160.097 E.01496
G1 X97.689 Y159.726 E.01496
G1 X98.053 Y159.418 E.01496
G1 X98.469 Y159.184 E.01496
G1 X98.937 Y159.029 E.01547
G1 X99.484 Y158.963 E.01727
G1 X100.027 Y159.02 E.01711
G1 X100.483 Y159.163 E.01496
G1 X100.903 Y159.388 E.01496
G1 X101.274 Y159.689 E.01496
G1 X101.599 Y160.084 E.01606
G1 X101.879 Y160.634 E.01934
G1 X102.03 Y161.411 E.02483
G1 X102 Y161.923 E.01606
G1 X101.837 Y162.483 E.01828
G1 X101.612 Y162.903 E.01496
G1 X101.311 Y163.274 E.01496
G1 X100.947 Y163.582 E.01496
G1 X100.497 Y163.827 E.01606
G1 X99.905 Y163.999 E.01934
G1 X99.253 Y164.022 E.02045
G1 X98.493 Y163.822 E.02465
M204 P1000
G1 X98.68 Y163.485 F9000
M204 P800
;TYPE:External perimeter
G1 F1200
G1 X98.608 Y163.465 E.00233
G1 X98.216 Y163.237 E.01421
G1 X97.914 Y162.965 E.01274
G1 X97.667 Y162.642 E.01274
G1 X97.486 Y162.278 E.01274
G1 X97.376 Y161.887 E.01274
G1 X97.341 Y161.518 E.01164
G1 X97.382 Y161.078 E.01385
G1 X97.499 Y160.689 E.01274
G1 X97.686 Y160.328 E.01274
G1 X97.938 Y160.009 E.01274
G1 X98.245 Y159.743 E.01274
G1 X98.597 Y159.539 E.01274
G1 X98.985 Y159.403 E.01291
G1 X99.489 Y159.34 E.01591
G1 X99.922 Y159.382 E.01364
G1 X100.311 Y159.499 E.01274
G1 X100.672 Y159.686 E.01274
G1 X100.991 Y159.938 E.01274
G1 X101.263 Y160.256 E.01311
G1 X101.543 Y160.805 E.01934
G1 X101.658 Y161.47 E.02117
G1 X101.618 Y161.922 E.01421
G1 X101.501 Y162.311 E.01274
G1 X101.314 Y162.672 E.01274
G1 X101.062 Y162.991 E.01274
G1 X100.755 Y163.257 E.01274
G1 X100.392 Y163.465 E.01311
G1 X99.8 Y163.637 E.01934
G1 X99.253 Y163.645 E.01715
G1 X98.737 Y163.501 E.01678
M204 P1000
G1 X98.629 Y163.539 F9000
G1 E-2.24 F4200
;WIPE_START
G1 F7200
G1 X98.608 Y163.465 E-.07447
G1 X98.216 Y163.237 E-.25124
G1 X97.914 Y162.965 E-.22525
G1 X97.667 Y162.642 E-.22524
G1 X97.558 Y162.423 E-.1358
;WIPE_END
G1 E-.048 F4200
G1 Z.4 F720
G1 X148.23 Y159.653 F9000
G1 Z.2 F720
G1 E3.2 F2400
M204 P800
;TYPE:Perimeter
G1 F1200
G1 X148.599 Y160.084 E.0178
G1 X148.879 Y160.634 E.01934
G1 X149.03 Y161.411 E.02483
G1 X149 Y161.923 E.01606
G1 X148.837 Y162.483 E.01828
G1 X148.612 Y162.903 E.01496
G1 X148.311 Y163.274 E.01496
G1 X147.947 Y163.582 E.01496
G1 X147.497 Y163.827 E.01606
G1 X146.905 Y163.999 E.01934
G1 X146.113 Y164.002 E.02483
G1 X145.616 Y163.876 E.01606
G1 X144.955 Y163.506 E.02376
G1 X144.411 Y162.931 E.02483
G1 X144.163 Y162.483 E.01606
G1 X144 Y161.923 E.01828
G1 X143.965 Y161.553 E.01164
G1 X144.008 Y161.022 E.01672
G1 X144.163 Y160.517 E.01653
G1 X144.388 Y160.097 E.01496
G1 X144.689 Y159.726 E.01496
G1 X145.053 Y159.418 E.01496
G1 X145.469 Y159.184 E.01496
G1 X145.937 Y159.029 E.01547
G1 X146.478 Y158.963 E.01706
G1 X147.027 Y159.02 E.01733
G1 X147.483 Y159.163 E.01496
G1 X147.903 Y159.388 E.01496
G1 X148.183 Y159.615 E.0113
M204 P1000
G1 X148.004 Y159.953 F9000
M204 P800
;TYPE:External perimeter
G1 F1200
G1 X148.263 Y160.256 E.0125
G1 X148.543 Y160.805 E.01934
G1 X148.658 Y161.47 E.02117
G1 X148.618 Y161.922 E.01421
G1 X148.501 Y162.311 E.01274
G1 X148.314 Y162.672 E.01274
G1 X148.062 Y162.991 E.01274
G1 X147.755 Y163.257 E.01274
G1 X147.392 Y163.465 E.01311
G1 X146.8 Y163.637 E.01934
G1 X146.125 Y163.625 E.02117
G1 X145.678 Y163.495 E.01458
G1 X145.147 Y163.181 E.01934
G1 X144.694 Y162.681 E.02117
G1 X144.486 Y162.278 E.01421
G1 X144.376 Y161.887 E.01274
G1 X144.341 Y161.518 E.01164
G1 X144.382 Y161.078 E.01385
G1 X144.499 Y160.689 E.01274
G1 X144.686 Y160.328 E.01274
G1 X144.938 Y160.009 E.01274
G1 X145.245 Y159.743 E.01274
G1 X145.597 Y159.539 E.01274
G1 X145.985 Y159.403 E.01291
G1 X146.487 Y159.34 E.01584
G1 X146.922 Y159.382 E.01371
G1 X147.311 Y159.499 E.01274
G1 X147.672 Y159.686 E.01274
G1 X147.959 Y159.913 E.01147
M204 P1000
G1 X148.387 Y159.843 F9000
G1 E-2.24 F4200
;WIPE_START
G1 F7200
G1 X148.263 Y160.256 E-.25375
G1 X148.543 Y160.805 E-.34184
G1 X148.64 Y161.368 E-.31641
;WIPE_END
G1 E-.048 F4200
G1 Z.4 F720
G1 X152.1 Y13.663 F9000
G1 Z.2 F720
G1 E3.2 F2400
M204 P800
;TYPE:Solid infill
;WIDTH:0.420413
G1 F1200
G1 X151.506 Y13.07 E.02634
G1 X150.972 Y13.07 E.01676
G1 X151.93 Y14.028 E.04251
G1 X151.93 Y14.561 E.01676
G1 X150.439 Y13.07 E.06621
G1 X149.905 Y13.07 E.01676
G1 X151.93 Y15.095 E.08991
G1 X151.93 Y15.629 E.01676
G1 X149.371 Y13.07 E.1136
G1 X148.837 Y13.07 E.01676
G1 X151.93 Y16.163 E.1373
G1 X151.93 Y16.697 E.01676
G1 X148.303 Y13.07 E.161
G1 X147.769 Y13.07 E.01676
G1 X151.93 Y17.231 E.1847
G1 X151.93 Y17.764 E.01676
G1 X147.236 Y13.07 E.2084
G1 X146.702 Y13.07 E.01676
G1 X151.93 Y18.298 E.23209
G1 X151.93 Y18.832 E.01676
G1 X146.168 Y13.07 E.25579
G1 X145.634 Y13.07 E.01676
G1 X151.93 Y19.366 E.27949
G1 X151.93 Y19.9 E.01676
G1 X145.1 Y13.07 E.30319
G1 X144.566 Y13.07 E.01676
G1 X147.308 Y15.812 E.12171
G1 X147.469 Y15.854 E.00522
G1 X147.948 Y16.082 E.01668
G1 X148.459 Y16.472 E.02015
G1 X148.735 Y16.784 E.0131
G1 X148.848 Y16.951 E.00631
G1 X149.134 Y17.512 E.01978
G1 X149.195 Y17.699 E.00615
G1 X151.93 Y20.434 E.12141
G1 X151.93 Y20.968 E.01676
G1 X149.306 Y18.343 E.11649
G1 X149.317 Y18.574 E.00725
G1 X149.288 Y18.86 E.009
G1 X151.93 Y21.501 E.11727
G1 X151.93 Y22.035 E.01676
G1 X149.194 Y19.299 E.12147
G1 X149.146 Y19.469 E.00556
G1 X149.044 Y19.683 E.00743
G1 X151.93 Y22.569 E.12811
G1 X151.93 Y23.103 E.01676
G1 X148.857 Y20.03 E.13641
G1 X148.631 Y20.338 E.01199
G1 X151.93 Y23.637 E.14645
G1 X151.93 Y24.171 E.01676
G1 X148.36 Y20.601 E.15846
G1 X148.215 Y20.736 E.00622
M73 P1 R189
G1 X148.059 Y20.834 E.00578
G1 X151.93 Y24.705 E.17183
G1 X151.93 Y25.238 E.01676
G1 X147.726 Y21.035 E.18661
G1 X147.581 Y21.097 E.00496
G1 X147.326 Y21.168 E.00832
G1 X151.93 Y25.772 E.20438
G1 X151.93 Y26.306 E.01676
G1 X146.908 Y21.284 E.22292
G1 X146.393 Y21.303 E.01618
G1 X151.93 Y26.84 E.24579
G1 X151.93 Y27.374 E.01676
G1 X145.492 Y20.936 E.2858
M204 P1000
G1 E-2.24 F4200
;WIPE_START
G1 F7200
G1 X146.656 Y22.099 E-.912
;WIPE_END
G1 E-.048 F4200
G1 Z.4 F720
G1 X146.842 Y15.879 F9000
G1 Z.2 F720
G1 E3.2 F2400
M204 P800
G1 F1200
G1 X144.032 Y13.07 E.1247
G1 X143.499 Y13.07 E.01676
G1 X146.146 Y15.718 E.11754
G1 X145.858 Y15.755 E.00914
G1 X145.702 Y15.807 E.00515
G1 X142.965 Y13.07 E.12152
G1 X142.431 Y13.07 E.01676
G1 X145.312 Y15.951 E.12788
G1 X144.969 Y16.142 E.01232
G1 X141.897 Y13.07 E.13635
G1 X141.363 Y13.07 E.01676
G1 X144.668 Y16.375 E.1467
G1 X144.391 Y16.632 E.01186
G1 X140.829 Y13.07 E.15812
G1 X140.295 Y13.07 E.01676
G1 X144.165 Y16.94 E.17178
G1 X144.082 Y17.053 E.0044
G1 X143.973 Y17.281 E.00796
G1 X139.762 Y13.07 E.18695
G1 X139.228 Y13.07 E.01676
G1 X143.819 Y17.662 E.20383
G1 X143.716 Y18.092 E.01389
G1 X138.694 Y13.07 E.22293
G1 X138.16 Y13.07 E.01676
G1 X143.685 Y18.595 E.24527
G1 X143.73 Y19.033 E.0138
G1 X143.786 Y19.23 E.00644
G1 X137.626 Y13.07 E.27345
G1 X137.092 Y13.07 E.01676
G1 X151.93 Y27.908 E.65866
G1 X151.93 Y28.442 E.01676
G1 X136.558 Y13.07 E.68236
G1 X136.025 Y13.07 E.01676
