; generated by PrusaSlicer 2.5.0+win64 on 2022-09-11 at 13:52:27 UTC


;
;

;
;
; 

; external perimeters extrusion width = 0.45mm
; perimeters extrusion width = 0.45mm
; infill extrusion width = 0.45mm
; solid infill extrusion width = 0.45mm
; top infill extrusion width = 0.40mm
; first layer extrusion width = 0.42mm

M73 P0 R32
M201 X2500 Y2500 Z400 E5000 ; sets maximum accelerations, mm/sec^2
M203 X180 Y180 Z12 E80 ; sets maximum feedrates, mm / sec
M204 P1250 R1250 T2500 ; sets acceleration (P, T) and retract acceleration (R), mm/sec^2
M205 X8.00 Y8.00 Z2.00 E10.00 ; sets the jerk limits, mm/sec
M205 S0 T0 ; sets the minimum extruding and travel feed rate, mm/sec
M107
;TYPE:Custom
M862.3 P "MINI" ; printer model check
G90 ; use absolute coordinates
M83 ; extruder relative mode
M104 S170 ; set extruder temp for bed leveling
M140 S60 ; set bed temp
M109 R170 ; wait for bed leveling temp
M190 S60 ; wait for bed temp
M204 T1250 ; set travel acceleration
G28 ; home all without mesh bed level
G29 ; mesh bed leveling 
M204 T2500 ; restore travel acceleration
M104 S215 ; set extruder temp
G92 E0
G1 Y-2 X179 F2400
G1 Z3 F720
M109 S215 ; wait for extruder temp

; intro line
G1 X170 F1000
G1 Z0.2 F720
G1 X110 E8 F900
G1 X40 E10 F700
G92 E0

M221 S95 ; set flow
G21 ; set units to millimeters
G90 ; use absolute coordinates
M83 ; use relative distances for extrusion
M900 K0.2 ; Filament gcode LA 1.5
; ; Filament gcode LA 1.0
M107
;LAYER_CHANGE
;Z:0.2
;HEIGHT:0.2
;BEFORE_LAYER_CHANGE
G92 E0.0
;0.2


G1 E-3.2 F4200
G1 Z.2 F720
;AFTER_LAYER_CHANGE
;0.2
G1 Z.4
G1 X59.415 Y54.793 F9000
G1 Z.2 F720
G1 E3.2 F2400
M204 P800
;TYPE:Skirt/Brim
;WIDTH:0.42
G1 F1200
G1 X60.46 Y53.917 E.04278
G1 X61.4 Y53.723 E.03008
G1 X118.6 Y53.723 E1.79346
G1 X119.907 Y54.115 E.04278
G1 X120.783 Y55.16 E.04278
G1 X120.977 Y56.1 E.03008
G1 X120.977 Y123.9 E2.12582
G1 X120.585 Y125.207 E.04278
M73 P1 R32
G1 X119.54 Y126.083 E.04278
G1 X118.6 Y126.277 E.03008
G1 X61.4 Y126.277 E1.79346
G1 X60.093 Y125.885 E.04278
G1 X59.217 Y124.84 E.04278
G1 X59.023 Y123.9 E.03008
G1 X59.023 Y56.1 E2.12582
G1 X59.397 Y54.85 E.0409
M204 P1000
; printing object 002_LED-Halterung.stl id:0 copy 2
G1 E-2.24 F4200
;WIPE_START
G1 F7200
G1 X60.46 Y53.917 E-.78411
G1 X60.686 Y53.87 E-.12789
;WIPE_END
G1 E-.048 F4200
G1 Z.4 F720
G1 X62.187 Y56.887 F9000
G1 Z.2 F720
G1 E3.2 F2400
M204 P800
;TYPE:Perimeter
;WIDTH:0.419999
G1 F1200
G1 X70.413 Y56.887 E.25791
G1 X70.413 Y123.113 E2.07646
G1 X62.187 Y123.113 E.25791
G1 X62.187 Y56.947 E2.07458
M204 P1000
G1 X61.81 Y56.51 F9000
M204 P800
;TYPE:External perimeter
G1 F1200
G1 X70.79 Y56.51 E.28156
G1 X70.79 Y123.49 E2.10011
G1 X61.81 Y123.49 E.28156
M73 P2 R31
G1 X61.81 Y56.57 E2.09823
M204 P1000
G1 X62.165 Y56.694 F9000
G1 E-2.24 F4200
;WIPE_START
G1 F7200
G1 X63.456 Y56.559 E-.912
;WIPE_END
G1 E-.048 F4200
G1 Z.4 F720
G1 X69.532 Y57 F9000
G1 Z.2 F720
G1 E3.2 F2400
M204 P800
;TYPE:Solid infill
;WIDTH:0.422475
G1 F1200
G1 X70.13 Y57.598 E.02668
G1 X70.13 Y58.135 E.01694
G1 X69.165 Y57.17 E.04307
G1 X68.628 Y57.17 E.01694
G1 X70.13 Y58.672 E.06702
G1 X70.13 Y59.208 E.01694
G1 X68.092 Y57.17 E.09098
G1 X67.555 Y57.17 E.01694
G1 X70.13 Y59.745 E.11494
G1 X70.13 Y60.282 E.01694
G1 X67.018 Y57.17 E.1389
G1 X66.481 Y57.17 E.01694
G1 X70.13 Y60.819 E.16286
G1 X70.13 Y61.355 E.01694
G1 X65.945 Y57.17 E.18681
G1 X65.408 Y57.17 E.01694
G1 X70.13 Y61.892 E.21077
G1 X70.13 Y62.429 E.01694
G1 X64.871 Y57.17 E.23473
G1 X64.334 Y57.17 E.01694
G1 X70.13 Y62.966 E.25869
G1 X70.13 Y63.503 E.01694
G1 X63.797 Y57.17 E.28264
G1 X63.261 Y57.17 E.01694
G1 X70.13 Y64.039 E.3066
G1 X70.13 Y64.576 E.01694
G1 X62.724 Y57.17 E.33056
G1 X62.47 Y57.17 E.00802
G1 X62.47 Y57.453 E.00892
G1 X70.13 Y65.113 E.3419
G1 X70.13 Y65.65 E.01694
G1 X62.47 Y57.989 E.3419
G1 X62.47 Y58.526 E.01694
G1 X70.13 Y66.186 E.3419
G1 X70.13 Y66.723 E.01694
G1 X62.47 Y59.063 E.3419
G1 X62.47 Y59.6 E.01694
G1 X70.13 Y67.26 E.3419
G1 X70.13 Y67.797 E.01694
G1 X62.47 Y60.136 E.3419
G1 X62.47 Y60.673 E.01694
G1 X70.13 Y68.333 E.3419
G1 X70.13 Y68.87 E.01694
G1 X62.47 Y61.21 E.3419
G1 X62.47 Y61.747 E.01694
G1 X70.13 Y69.407 E.3419
G1 X70.13 Y69.944 E.01694
G1 X62.47 Y62.284 E.3419
G1 X62.47 Y62.82 E.01694
G1 X70.13 Y70.481 E.3419
G1 X70.13 Y71.017 E.01694
G1 X62.47 Y63.357 E.3419
G1 X62.47 Y63.894 E.01694
G1 X70.13 Y71.554 E.3419
G1 X70.13 Y72.091 E.01694
G1 X62.47 Y64.431 E.3419
G1 X62.47 Y64.967 E.01694
G1 X70.13 Y72.628 E.3419
G1 X70.13 Y73.164 E.01694
G1 X62.47 Y65.504 E.3419
G1 X62.47 Y66.041 E.01694
M73 P3 R31
G1 X70.13 Y73.701 E.3419
G1 X70.13 Y74.238 E.01694
G1 X62.47 Y66.578 E.3419
G1 X62.47 Y67.114 E.01694
G1 X70.13 Y74.775 E.3419
G1 X70.13 Y75.312 E.01694
G1 X62.47 Y67.651 E.3419
G1 X62.47 Y68.188 E.01694
G1 X70.13 Y75.848 E.3419
G1 X70.13 Y76.385 E.01694
G1 X62.47 Y68.725 E.3419
G1 X62.47 Y69.262 E.01694
G1 X70.13 Y76.922 E.3419
G1 X70.13 Y77.459 E.01694
G1 X62.47 Y69.798 E.3419
G1 X62.47 Y70.335 E.01694
G1 X70.13 Y77.995 E.3419
G1 X70.13 Y78.532 E.01694
G1 X62.47 Y70.872 E.3419
G1 X62.47 Y71.409 E.01694
G1 X70.13 Y79.069 E.3419
G1 X70.13 Y79.606 E.01694
G1 X62.47 Y71.945 E.3419
G1 X62.47 Y72.482 E.01694
G1 X70.13 Y80.142 E.3419
G1 X70.13 Y80.679 E.01694
G1 X62.47 Y73.019 E.3419
G1 X62.47 Y73.556 E.01694
G1 X70.13 Y81.216 E.3419
G1 X70.13 Y81.753 E.01694
G1 X62.47 Y74.093 E.3419
G1 X62.47 Y74.629 E.01694
G1 X70.13 Y82.29 E.3419
G1 X70.13 Y82.826 E.01694
G1 X62.47 Y75.166 E.3419
G1 X62.47 Y75.703 E.01694
G1 X70.13 Y83.363 E.3419
G1 X70.13 Y83.9 E.01694
G1 X62.47 Y76.24 E.3419
G1 X62.47 Y76.776 E.01694
G1 X70.13 Y84.437 E.3419
G1 X70.13 Y84.973 E.01694
G1 X62.47 Y77.313 E.3419
G1 X62.47 Y77.85 E.01694
G1 X70.13 Y85.51 E.3419
G1 X70.13 Y86.047 E.01694
G1 X62.47 Y78.387 E.3419
G1 X62.47 Y78.923 E.01694
G1 X70.13 Y86.584 E.3419
G1 X70.13 Y87.12 E.01694
G1 X62.47 Y79.46 E.3419
G1 X62.47 Y79.997 E.01694
G1 X70.13 Y87.657 E.3419
G1 X70.13 Y88.194 E.01694
G1 X62.47 Y80.534 E.3419
G1 X62.47 Y81.071 E.01694
G1 X70.13 Y88.731 E.3419
G1 X70.13 Y89.268 E.01694
G1 X62.47 Y81.607 E.3419
G1 X62.47 Y82.144 E.01694
G1 X70.13 Y89.804 E.3419
G1 X70.13 Y90.341 E.01694
G1 X62.47 Y82.681 E.3419
G1 X62.47 Y83.218 E.01694
G1 X70.13 Y90.878 E.3419
G1 X70.13 Y91.415 E.01694
M73 P4 R31
G1 X62.47 Y83.754 E.3419
G1 X62.47 Y84.291 E.01694
G1 X70.13 Y91.951 E.3419
G1 X70.13 Y92.488 E.01694
G1 X62.47 Y84.828 E.3419
G1 X62.47 Y85.365 E.01694
G1 X70.13 Y93.025 E.3419
G1 X70.13 Y93.562 E.01694
G1 X62.47 Y85.902 E.3419
G1 X62.47 Y86.438 E.01694
G1 X70.13 Y94.099 E.3419
G1 X70.13 Y94.635 E.01694
G1 X62.47 Y86.975 E.3419
G1 X62.47 Y87.512 E.01694
G1 X70.13 Y95.172 E.3419
G1 X70.13 Y95.709 E.01694
G1 X62.47 Y88.049 E.3419
G1 X62.47 Y88.585 E.01694
G1 X70.13 Y96.246 E.3419
G1 X70.13 Y96.782 E.01694
G1 X62.47 Y89.122 E.3419
G1 X62.47 Y89.659 E.01694
G1 X70.13 Y97.319 E.3419
G1 X70.13 Y97.856 E.01694
G1 X62.47 Y90.196 E.3419
G1 X62.47 Y90.732 E.01694
G1 X70.13 Y98.393 E.3419
G1 X70.13 Y98.929 E.01694
G1 X62.47 Y91.269 E.3419
G1 X62.47 Y91.806 E.01694
G1 X70.13 Y99.466 E.3419
G1 X70.13 Y100.003 E.01694
G1 X62.47 Y92.343 E.3419
G1 X62.47 Y92.88 E.01694
G1 X70.13 Y100.54 E.3419
G1 X70.13 Y101.077 E.01694
G1 X62.47 Y93.416 E.3419
G1 X62.47 Y93.953 E.01694
G1 X70.13 Y101.613 E.3419
G1 X70.13 Y102.15 E.01694
G1 X62.47 Y94.49 E.3419
G1 X62.47 Y95.027 E.01694
G1 X70.13 Y102.687 E.3419
G1 X70.13 Y103.224 E.01694
G1 X62.47 Y95.563 E.3419
G1 X62.47 Y96.1 E.01694
G1 X70.13 Y103.76 E.3419
G1 X70.13 Y104.297 E.01694
G1 X62.47 Y96.637 E.3419
G1 X62.47 Y97.174 E.01694
G1 X70.13 Y104.834 E.3419
G1 X70.13 Y105.371 E.01694
G1 X62.47 Y97.71 E.3419
G1 X62.47 Y98.247 E.01694
G1 X70.13 Y105.907 E.3419
G1 X70.13 Y106.444 E.01694
G1 X62.47 Y98.784 E.3419
G1 X62.47 Y99.321 E.01694
G1 X70.13 Y106.981 E.3419
G1 X70.13 Y107.518 E.01694
G1 X62.47 Y99.858 E.3419
G1 X62.47 Y100.394 E.01694
G1 X70.13 Y108.055 E.3419
G1 X70.13 Y108.591 E.01694
G1 X62.47 Y100.931 E.3419
G1 X62.47 Y101.468 E.01694
G1 X70.13 Y109.128 E.3419
G1 X70.13 Y109.665 E.01694
M73 P5 R31
G1 X62.47 Y102.005 E.3419
G1 X62.47 Y102.541 E.01694
M73 P5 R30
G1 X70.13 Y110.202 E.3419
G1 X70.13 Y110.738 E.01694
G1 X62.47 Y103.078 E.3419
G1 X62.47 Y103.615 E.01694
G1 X70.13 Y111.275 E.3419
G1 X70.13 Y111.812 E.01694
G1 X62.47 Y104.152 E.3419
G1 X62.47 Y104.689 E.01694
G1 X70.13 Y112.349 E.3419
G1 X70.13 Y112.886 E.01694
G1 X62.47 Y105.225 E.3419
G1 X62.47 Y105.762 E.01694
G1 X70.13 Y113.422 E.3419
G1 X70.13 Y113.959 E.01694
G1 X62.47 Y106.299 E.3419
G1 X62.47 Y106.836 E.01694
G1 X70.13 Y114.496 E.3419
G1 X70.13 Y115.033 E.01694
G1 X62.47 Y107.372 E.3419
G1 X62.47 Y107.909 E.01694
G1 X70.13 Y115.569 E.3419
G1 X70.13 Y116.106 E.01694
G1 X62.47 Y108.446 E.3419
G1 X62.47 Y108.983 E.01694
G1 X70.13 Y116.643 E.3419
G1 X70.13 Y117.18 E.01694
G1 X62.47 Y109.519 E.3419
G1 X62.47 Y110.056 E.01694
G1 X70.13 Y117.716 E.3419
G1 X70.13 Y118.253 E.01694
G1 X62.47 Y110.593 E.3419
G1 X62.47 Y111.13 E.01694
G1 X70.13 Y118.79 E.3419
G1 X70.13 Y119.327 E.01694
G1 X62.47 Y111.667 E.3419
G1 X62.47 Y112.203 E.01694
G1 X70.13 Y119.864 E.3419
G1 X70.13 Y120.4 E.01694
G1 X62.47 Y112.74 E.3419
G1 X62.47 Y113.277 E.01694
G1 X70.13 Y120.937 E.3419
G1 X70.13 Y121.474 E.01694
G1 X62.47 Y113.814 E.3419
G1 X62.47 Y114.35 E.01694
G1 X70.13 Y122.011 E.3419
G1 X70.13 Y122.547 E.01694
G1 X62.47 Y114.887 E.3419
G1 X62.47 Y115.424 E.01694
G1 X69.876 Y122.83 E.33056
G1 X69.339 Y122.83 E.01694
G1 X62.47 Y115.961 E.3066
G1 X62.47 Y116.498 E.01694
G1 X68.803 Y122.83 E.28264
G1 X68.266 Y122.83 E.01694
G1 X62.47 Y117.034 E.25868
G1 X62.47 Y117.571 E.01694
G1 X67.729 Y122.83 E.23473
G1 X67.192 Y122.83 E.01694
G1 X62.47 Y118.108 E.21077
G1 X62.47 Y118.645 E.01694
G1 X66.655 Y122.83 E.18681
G1 X66.119 Y122.83 E.01694
G1 X62.47 Y119.181 E.16285
G1 X62.47 Y119.718 E.01694
G1 X65.582 Y122.83 E.1389
G1 X65.045 Y122.83 E.01694
G1 X62.47 Y120.255 E.11494
G1 X62.47 Y120.792 E.01694
G1 X64.508 Y122.83 E.09098
G1 X63.972 Y122.83 E.01694
G1 X62.47 Y121.328 E.06702
G1 X62.47 Y121.865 E.01694
G1 X63.435 Y122.83 E.04307
G1 X62.898 Y122.83 E.01694
G1 X62.3 Y122.232 E.02668
M204 P1000
; stop printing object 002_LED-Halterung.stl id:0 copy 2
; printing object 002_LED-Halterung.stl id:0 copy 0
G1 E-2.24 F4200
;WIPE_START
G1 F7200
G1 X62.898 Y122.83 E-.46851
G1 X63.435 Y122.83 E-.29746
G1 X63.248 Y122.644 E-.14603
;WIPE_END
G1 E-.048 F4200
G1 Z.4 F720
G1 X77.987 Y123.113 F9000
G1 Z.2 F720
M73 P6 R30
G1 E3.2 F2400
M204 P800
;TYPE:Perimeter
;WIDTH:0.419999
G1 F1200
G1 X77.987 Y56.887 E2.07646
G1 X86.213 Y56.887 E.25791
G1 X86.213 Y123.113 E2.07646
G1 X78.047 Y123.113 E.25603
M204 P1000
G1 X77.61 Y123.49 F9000
M204 P800
;TYPE:External perimeter
G1 F1200
G1 X77.61 Y56.51 E2.10011
G1 X86.59 Y56.51 E.28156
G1 X86.59 Y123.49 E2.10011
G1 X77.67 Y123.49 E.27968
M204 P1000
G1 X77.628 Y123.09 F9000
G1 E-2.24 F4200
;WIPE_START
G1 F7200
G1 X77.669 Y121.844 E-.912
;WIPE_END
G1 E-.048 F4200
G1 Z.4 F720
G1 X85.332 Y57 F9000
G1 Z.2 F720
G1 E3.2 F2400
M204 P800
;TYPE:Solid infill
;WIDTH:0.422475
G1 F1200
G1 X85.93 Y57.598 E.02668
G1 X85.93 Y58.135 E.01694
G1 X84.965 Y57.17 E.04307
G1 X84.428 Y57.17 E.01694
G1 X85.93 Y58.672 E.06702
G1 X85.93 Y59.208 E.01694
G1 X83.892 Y57.17 E.09098
G1 X83.355 Y57.17 E.01694
G1 X85.93 Y59.745 E.11494
G1 X85.93 Y60.282 E.01694
G1 X82.818 Y57.17 E.1389
G1 X82.281 Y57.17 E.01694
G1 X85.93 Y60.819 E.16286
G1 X85.93 Y61.355 E.01694
G1 X81.745 Y57.17 E.18681
G1 X81.208 Y57.17 E.01694
G1 X85.93 Y61.892 E.21077
G1 X85.93 Y62.429 E.01694
G1 X80.671 Y57.17 E.23473
G1 X80.134 Y57.17 E.01694
G1 X85.93 Y62.966 E.25869
G1 X85.93 Y63.503 E.01694
G1 X79.597 Y57.17 E.28264
G1 X79.061 Y57.17 E.01694
G1 X85.93 Y64.039 E.3066
G1 X85.93 Y64.576 E.01694
M73 P7 R30
G1 X78.524 Y57.17 E.33056
G1 X78.27 Y57.17 E.00802
G1 X78.27 Y57.453 E.00892
G1 X85.93 Y65.113 E.3419
G1 X85.93 Y65.65 E.01694
G1 X78.27 Y57.989 E.3419
G1 X78.27 Y58.526 E.01694
G1 X85.93 Y66.186 E.3419
G1 X85.93 Y66.723 E.01694
G1 X78.27 Y59.063 E.3419
G1 X78.27 Y59.6 E.01694
G1 X85.93 Y67.26 E.3419
G1 X85.93 Y67.797 E.01694
G1 X78.27 Y60.136 E.3419
G1 X78.27 Y60.673 E.01694
G1 X85.93 Y68.333 E.3419
G1 X85.93 Y68.87 E.01694
G1 X78.27 Y61.21 E.3419
G1 X78.27 Y61.747 E.01694
G1 X85.93 Y69.407 E.3419
G1 X85.93 Y69.944 E.01694
G1 X78.27 Y62.284 E.3419
G1 X78.27 Y62.82 E.01694
G1 X85.93 Y70.481 E.3419
G1 X85.93 Y71.017 E.01694
G1 X78.27 Y63.357 E.3419
G1 X78.27 Y63.894 E.01694
G1 X85.93 Y71.554 E.3419
G1 X85.93 Y72.091 E.01694
G1 X78.27 Y64.431 E.3419
G1 X78.27 Y64.967 E.01694
G1 X85.93 Y72.628 E.3419
G1 X85.93 Y73.164 E.01694
G1 X78.27 Y65.504 E.3419
G1 X78.27 Y66.041 E.01694
G1 X85.93 Y73.701 E.3419
G1 X85.93 Y74.238 E.01694
G1 X78.27 Y66.578 E.3419
G1 X78.27 Y67.114 E.01694
G1 X85.93 Y74.775 E.3419
G1 X85.93 Y75.312 E.01694
G1 X78.27 Y67.651 E.3419
G1 X78.27 Y68.188 E.01694
G1 X85.93 Y75.848 E.3419
G1 X85.93 Y76.385 E.01694
G1 X78.27 Y68.725 E.3419
G1 X78.27 Y69.262 E.01694
G1 X85.93 Y76.922 E.3419
G1 X85.93 Y77.459 E.01694
G1 X78.27 Y69.798 E.3419
G1 X78.27 Y70.335 E.01694
G1 X85.93 Y77.995 E.3419
G1 X85.93 Y78.532 E.01694
G1 X78.27 Y70.872 E.3419
G1 X78.27 Y71.409 E.01694
G1 X85.93 Y79.069 E.3419
G1 X85.93 Y79.606 E.01694
G1 X78.27 Y71.945 E.3419
G1 X78.27 Y72.482 E.01694
G1 X85.93 Y80.142 E.3419
G1 X85.93 Y80.679 E.01694
G1 X78.27 Y73.019 E.3419
G1 X78.27 Y73.556 E.01694
G1 X85.93 Y81.216 E.3419
G1 X85.93 Y81.753 E.01694
G1 X78.27 Y74.093 E.3419
G1 X78.27 Y74.629 E.01694
G1 X85.93 Y82.29 E.3419
M73 P8 R30
G1 X85.93 Y82.826 E.01694
G1 X78.27 Y75.166 E.3419
G1 X78.27 Y75.703 E.01694
G1 X85.93 Y83.363 E.3419
G1 X85.93 Y83.9 E.01694
G1 X78.27 Y76.24 E.3419
G1 X78.27 Y76.776 E.01694
M73 P8 R29
G1 X85.93 Y84.437 E.3419
G1 X85.93 Y84.973 E.01694
G1 X78.27 Y77.313 E.3419
G1 X78.27 Y77.85 E.01694
G1 X85.93 Y85.51 E.3419
G1 X85.93 Y86.047 E.01694
G1 X78.27 Y78.387 E.3419
G1 X78.27 Y78.923 E.01694
G1 X85.93 Y86.584 E.3419
G1 X85.93 Y87.12 E.01694
G1 X78.27 Y79.46 E.3419
G1 X78.27 Y79.997 E.01694
G1 X85.93 Y87.657 E.3419
G1 X85.93 Y88.194 E.01694
G1 X78.27 Y80.534 E.3419
G1 X78.27 Y81.071 E.01694
G1 X85.93 Y88.731 E.3419
G1 X85.93 Y89.268 E.01694
G1 X78.27 Y81.607 E.3419
G1 X78.27 Y82.144 E.01694
G1 X85.93 Y89.804 E.3419
G1 X85.93 Y90.341 E.01694
G1 X78.27 Y82.681 E.3419
G1 X78.27 Y83.218 E.01694
G1 X85.93 Y90.878 E.3419
G1 X85.93 Y91.415 E.01694
G1 X78.27 Y83.754 E.3419
G1 X78.27 Y84.291 E.01694
G1 X85.93 Y91.951 E.3419
G1 X85.93 Y92.488 E.01694
G1 X78.27 Y84.828 E.3419
G1 X78.27 Y85.365 E.01694
G1 X85.93 Y93.025 E.3419
G1 X85.93 Y93.562 E.01694
G1 X78.27 Y85.902 E.3419
G1 X78.27 Y86.438 E.01694
G1 X85.93 Y94.099 E.3419
G1 X85.93 Y94.635 E.01694
G1 X78.27 Y86.975 E.3419
G1 X78.27 Y87.512 E.01694
G1 X85.93 Y95.172 E.3419
G1 X85.93 Y95.709 E.01694
G1 X78.27 Y88.049 E.3419
G1 X78.27 Y88.585 E.01694
G1 X85.93 Y96.246 E.3419
G1 X85.93 Y96.782 E.01694
G1 X78.27 Y89.122 E.3419
G1 X78.27 Y89.659 E.01694
G1 X85.93 Y97.319 E.3419
G1 X85.93 Y97.856 E.01694
G1 X78.27 Y90.196 E.3419
G1 X78.27 Y90.732 E.01694
G1 X85.93 Y98.393 E.3419
G1 X85.93 Y98.929 E.01694
G1 X78.27 Y91.269 E.3419
G1 X78.27 Y91.806 E.01694
G1 X85.93 Y99.466 E.3419
G1 X85.93 Y100.003 E.01694
G1 X78.27 Y92.343 E.3419
G1 X78.27 Y92.88 E.01694
M73 P9 R29
G1 X85.93 Y100.54 E.3419
G1 X85.93 Y101.077 E.01694
G1 X78.27 Y93.416 E.3419
G1 X78.27 Y93.953 E.01694
G1 X85.93 Y101.613 E.3419
G1 X85.93 Y102.15 E.01694
G1 X78.27 Y94.49 E.3419
G1 X78.27 Y95.027 E.01694
G1 X85.93 Y102.687 E.3419
G1 X85.93 Y103.224 E.01694
G1 X78.27 Y95.563 E.3419
G1 X78.27 Y96.1 E.01694
G1 X85.93 Y103.76 E.3419
G1 X85.93 Y104.297 E.01694
G1 X78.27 Y96.637 E.3419
G1 X78.27 Y97.174 E.01694
G1 X85.93 Y104.834 E.3419
G1 X85.93 Y105.371 E.01694
G1 X78.27 Y97.71 E.3419
G1 X78.27 Y98.247 E.01694
G1 X85.93 Y105.907 E.3419
G1 X85.93 Y106.444 E.01694
G1 X78.27 Y98.784 E.3419
G1 X78.27 Y99.321 E.01694
G1 X85.93 Y106.981 E.3419
G1 X85.93 Y107.518 E.01694
G1 X78.27 Y99.858 E.3419
G1 X78.27 Y100.394 E.01694
G1 X85.93 Y108.055 E.3419
G1 X85.93 Y108.591 E.01694
G1 X78.27 Y100.931 E.3419
G1 X78.27 Y101.468 E.01694
G1 X85.93 Y109.128 E.3419
G1 X85.93 Y109.665 E.01694
