; generated by PrusaSlicer 2.5.0+win64 on 2022-09-11 at 14:20:23 UTC


;
;

;
;
; 

; external perimeters extrusion width = 0.45mm
; perimeters extrusion width = 0.45mm
; infill extrusion width = 0.45mm
; solid infill extrusion width = 0.45mm
; top infill extrusion width = 0.40mm
; first layer extrusion width = 0.42mm

M73 P0 R250
M201 X2500 Y2500 Z400 E5000 ; sets maximum accelerations, mm/sec^2
M203 X180 Y180 Z12 E80 ; sets maximum feedrates, mm / sec
M204 P1250 R1250 T2500 ; sets acceleration (P, T) and retract acceleration (R), mm/sec^2
M205 X8.00 Y8.00 Z2.00 E10.00 ; sets the jerk limits, mm/sec
M205 S0 T0 ; sets the minimum extruding and travel feed rate, mm/sec
M107
;TYPE:Custom
M862.3 P "MINI" ; printer model check
G90 ; use absolute coordinates
M83 ; extruder relative mode
M104 S170 ; set extruder temp for bed leveling
M140 S60 ; set bed temp
M109 R170 ; wait for bed leveling temp
M190 S60 ; wait for bed temp
M204 T1250 ; set travel acceleration
G28 ; home all without mesh bed level
G29 ; mesh bed leveling 
M204 T2500 ; restore travel acceleration
M104 S215 ; set extruder temp
G92 E0
G1 Y-2 X179 F2400
G1 Z3 F720
M109 S215 ; wait for extruder temp

; intro line
G1 X170 F1000
G1 Z0.2 F720
G1 X110 E8 F900
G1 X40 E10 F700
G92 E0

M221 S95 ; set flow
G21 ; set units to millimeters
G90 ; use absolute coordinates
M83 ; use relative distances for extrusion
M900 K0.2 ; Filament gcode LA 1.5
; ; Filament gcode LA 1.0
M107
;LAYER_CHANGE
;Z:0.2
;HEIGHT:0.2
;BEFORE_LAYER_CHANGE
G92 E0.0
;0.2


G1 E-3.2 F4200
G1 Z.2 F720
;AFTER_LAYER_CHANGE
;0.2
G1 Z.4
G1 X16.185 Y11.443 F9000
G1 Z.2 F720
G1 E3.2 F2400
M204 P800
;TYPE:Skirt/Brim
;WIDTH:0.42
G1 F1200
G1 X17.23 Y10.567 E.04278
G1 X18.17 Y10.373 E.03008
G1 X161.83 Y10.373 E4.50436
G1 X163.137 Y10.765 E.04278
G1 X164.013 Y11.81 E.04278
G1 X164.207 Y12.75 E.03008
G1 X164.207 Y167.25 E4.84424
G1 X163.815 Y168.557 E.04278
G1 X162.77 Y169.433 E.04278
G1 X161.83 Y169.627 E.03008
G1 X18.17 Y169.627 E4.50436
G1 X16.863 Y169.235 E.04278
M73 P0 R249
G1 X15.987 Y168.19 E.04278
G1 X15.793 Y167.25 E.03008
G1 X15.793 Y12.75 E4.84424
G1 X16.167 Y11.5 E.0409
M204 P1000
; printing object Modul002.stl id:0 copy 0
G1 E-2.24 F4200
;WIPE_START
G1 F7200
G1 X17.23 Y10.567 E-.78411
G1 X17.456 Y10.52 E-.12789
;WIPE_END
G1 E-.048 F4200
G1 Z.4 F720
G1 X80.199 Y147.46 F9000
G1 Z.2 F720
G1 E3.2 F2400
M204 P800
;TYPE:Perimeter
;WIDTH:0.419999
G1 F1200
G1 X80.538 Y147.96 E.01894
G1 X80.664 Y147.974 E.004
G1 X85.293 Y147.974 E.14512
G1 X85.603 Y147.752 E.01197
G1 X85.004 Y149.515 E.05837
G1 X84.671 Y149.032 E.01841
G1 X84.553 Y149.019 E.0037
G1 X79.925 Y149.019 E.14512
G1 X79.586 Y149.262 E.01306
G1 X80.18 Y147.517 E.05779
M204 P1000
G1 E-2.24 F4200
;WIPE_START
G1 F7200
G1 X80.538 Y147.96 E-.31577
G1 X80.664 Y147.974 E-.07062
G1 X81.613 Y147.974 E-.52561
;WIPE_END
G1 E-.048 F4200
G1 Z.4 F720
G1 X101.747 Y146.695 F9000
G1 Z.2 F720
G1 E3.2 F2400
M204 P800
;TYPE:External perimeter
;WIDTH:0.432902
G1 F1200
G1 X101.561 Y147.394 E.02346
;WIDTH:0.482884
G1 X101.375 Y148.093 E.02646
;WIDTH:0.532865
G1 X101.189 Y148.792 E.02947
;WIDTH:0.582847
G1 X101.003 Y149.491 E.03247
;WIDTH:0.632828
G1 X100.816 Y150.19 E.03548
M204 P1000
G1 E-2.24 F4200
;WIPE_START
G1 F7200
G1 X101.003 Y149.491 E-.40084
G1 X101.189 Y148.792 E-.40084
G1 X101.24 Y148.6 E-.11032
;WIPE_END
G1 E-.048 F4200
G1 Z.4 F720
G1 X107.19 Y146.578 F9000
G1 Z.2 F720
G1 E3.2 F2400
M204 P800
;WIDTH:0.425091
G1 F1200
G1 X106.922 Y147.241 E.02272
;WIDTH:0.467262
G1 X106.653 Y147.904 E.02523
;WIDTH:0.509433
G1 X106.385 Y148.567 E.02774
;WIDTH:0.551604
G1 X106.117 Y149.229 E.03024
;WIDTH:0.593775
G1 X105.848 Y149.892 E.03275
;WIDTH:0.635946
G1 X105.58 Y150.555 E.03526
M204 P1000
G1 E-2.24 F4200
;WIPE_START
G1 F7200
G1 X105.848 Y149.892 E-.39623
G1 X106.117 Y149.229 E-.39623
G1 X106.198 Y149.029 E-.11953
;WIPE_END
G1 E-.048 F4200
G1 Z.4 F720
G1 X103.141 Y87.777 F9000
G1 Z.2 F720
G1 E3.2 F2400
M204 P800
;TYPE:Perimeter
;WIDTH:0.419999
G1 F1200
G1 X103.214 Y87.763 E.00233
G1 X104.348 Y87.763 E.03557
G1 X104.348 Y78.737 E.283
G1 X103.214 Y78.737 E.03557
G1 X102.998 Y78.694 E.00692
G1 X102.762 Y78.512 E.00932
G1 X102.659 Y78.279 E.00801
G1 X102.648 Y71.329 E.21791
G1 X102.719 Y71.054 E.00889
G1 X102.876 Y70.875 E.00745
G1 X102.998 Y70.806 E.00439
G1 X103.214 Y70.763 E.00692
G1 X104.348 Y70.763 E.03557
G1 X104.348 Y61.737 E.283
G1 X103.214 Y61.737 E.03557
G1 X102.998 Y61.694 E.00692
G1 X102.762 Y61.512 E.00932
G1 X102.659 Y61.279 E.00801
G1 X102.648 Y54.329 E.21791
G1 X102.719 Y54.054 E.00889
G1 X102.876 Y53.875 E.00745
G1 X102.998 Y53.806 E.00439
G1 X103.214 Y53.763 E.00692
G1 X104.348 Y53.763 E.03557
G1 X104.348 Y44.737 E.283
G1 X103.214 Y44.737 E.03557
G1 X102.998 Y44.694 E.00692
G1 X102.762 Y44.512 E.00932
G1 X102.659 Y44.279 E.00801
G1 X102.648 Y37.329 E.21791
G1 X102.71 Y37.073 E.00825
G1 X102.895 Y36.862 E.0088
G1 X103.137 Y36.768 E.00813
G1 X110.057 Y36.763 E.21698
G1 X110.314 Y36.825 E.0083
G1 X110.518 Y37 E.00843
G1 X110.618 Y37.257 E.00865
G1 X110.623 Y44.171 E.21679
G1 X110.552 Y44.446 E.00889
G1 X110.395 Y44.625 E.00745
G1 X110.273 Y44.694 E.00439
G1 X110.057 Y44.737 E.00692
G1 X108.923 Y44.737 E.03557
G1 X108.923 Y53.763 E.283
G1 X110.057 Y53.763 E.03557
G1 X110.273 Y53.806 E.00692
G1 X110.509 Y53.988 E.00932
G1 X110.612 Y54.221 E.00801
G1 X110.623 Y61.171 E.21791
G1 X110.552 Y61.446 E.00889
G1 X110.395 Y61.625 E.00745
G1 X110.273 Y61.694 E.00439
G1 X110.057 Y61.737 E.00692
G1 X108.923 Y61.737 E.03557
G1 X108.923 Y70.763 E.283
G1 X110.057 Y70.763 E.03557
G1 X110.273 Y70.806 E.00692
G1 X110.509 Y70.988 E.00932
G1 X110.612 Y71.221 E.00801
G1 X110.623 Y78.171 E.21791
G1 X110.552 Y78.446 E.00889
G1 X110.395 Y78.625 E.00745
G1 X110.273 Y78.694 E.00439
G1 X110.057 Y78.737 E.00692
G1 X108.923 Y78.737 E.03557
G1 X108.923 Y87.763 E.283
G1 X110.057 Y87.763 E.03557
G1 X110.273 Y87.806 E.00692
G1 X110.509 Y87.988 E.00932
G1 X110.612 Y88.221 E.00801
G1 X110.623 Y95.171 E.21791
G1 X110.558 Y95.434 E.00848
G1 X110.372 Y95.641 E.00873
G1 X110.057 Y95.737 E.01033
G1 X108.923 Y95.737 E.03557
G1 X108.923 Y115.874 E.63136
G1 X109.753 Y116.177 E.02771
G1 X111 Y116.936 E.04576
G1 X111.995 Y117.843 E.04223
G1 X112.834 Y118.971 E.04408
G1 X113.521 Y120.444 E.05095
G1 X113.827 Y121.755 E.04223
G1 X113.88 Y123.214 E.04576
G1 X113.642 Y124.654 E.04576
G1 X113.451 Y125.173 E.01734
G1 X113.07 Y126.118 E.03197
G1 X112.269 Y127.338 E.04574
G1 X111.366 Y128.264 E.04056
G1 X110.026 Y129.184 E.05096
G1 X108.783 Y129.703 E.04223
G1 X107.354 Y129.997 E.04576
G1 X105.894 Y130 E.04576
G1 X104.463 Y129.711 E.04576
G1 X103.119 Y129.144 E.04576
G1 X101.828 Y128.246 E.04929
G1 X100.898 Y127.272 E.04222
G1 X100.112 Y126.042 E.04576
G1 X99.586 Y124.681 E.04576
G1 X99.342 Y123.242 E.04576
G1 X99.39 Y121.783 E.04576
G1 X99.711 Y120.416 E.04406
G1 X100.4 Y118.943 E.05098
G1 X101.283 Y117.781 E.04576
G1 X102.289 Y116.885 E.04222
G1 X103.545 Y116.142 E.04576
G1 X104.348 Y115.856 E.02675
G1 X104.348 Y95.737 E.63081
G1 X103.214 Y95.737 E.03557
G1 X102.899 Y95.641 E.01033
G1 X102.713 Y95.434 E.00873
G1 X102.648 Y95.171 E.00848
G1 X102.648 Y88.329 E.21455
G1 X102.719 Y88.054 E.00889
G1 X102.876 Y87.875 E.00745
G1 X102.998 Y87.806 E.00439
G1 X103.082 Y87.789 E.00271
M204 P1000
G1 X103.214 Y88.14 F9000
M204 P800
;TYPE:External perimeter
G1 F1200
G1 X104.726 Y88.14 E.04739
G1 X104.726 Y78.36 E.30664
G1 X103.214 Y78.36 E.04739
G1 X103.063 Y78.285 E.00527
G1 X103.026 Y78.171 E.00375
G1 X103.026 Y71.329 E.21455
G1 X103.078 Y71.198 E.00441
G1 X103.214 Y71.14 E.00464
G1 X104.726 Y71.14 E.04739
G1 X104.726 Y61.36 E.30664
G1 X103.214 Y61.36 E.04739
G1 X103.063 Y61.285 E.00527
G1 X103.026 Y61.171 E.00375
G1 X103.026 Y54.329 E.21455
G1 X103.078 Y54.198 E.00441
G1 X103.214 Y54.14 E.00464
G1 X104.726 Y54.14 E.04739
G1 X104.726 Y44.36 E.30664
G1 X103.214 Y44.36 E.04739
G1 X103.063 Y44.285 E.00527
G1 X103.026 Y44.171 E.00375
G1 X103.026 Y37.329 E.21455
G1 X103.089 Y37.187 E.00486
G1 X103.214 Y37.14 E.00418
G1 X110.057 Y37.14 E.21455
G1 X110.204 Y37.211 E.00513
G1 X110.246 Y37.329 E.00391
G1 X110.246 Y44.171 E.21455
G1 X110.193 Y44.302 E.00441
G1 X110.057 Y44.36 E.00464
G1 X108.546 Y44.36 E.04739
G1 X108.546 Y54.14 E.30664
G1 X110.057 Y54.14 E.04739
G1 X110.208 Y54.215 E.00527
G1 X110.246 Y54.329 E.00375
G1 X110.246 Y61.171 E.21455
G1 X110.193 Y61.302 E.00441
G1 X110.057 Y61.36 E.00464
G1 X108.546 Y61.36 E.04739
G1 X108.546 Y71.14 E.30664
G1 X110.057 Y71.14 E.04739
G1 X110.208 Y71.215 E.00527
G1 X110.246 Y71.329 E.00375
G1 X110.246 Y78.171 E.21455
G1 X110.193 Y78.302 E.00441
G1 X110.057 Y78.36 E.00464
G1 X108.546 Y78.36 E.04739
G1 X108.546 Y88.14 E.30664
G1 X110.057 Y88.14 E.04739
G1 X110.208 Y88.215 E.00527
G1 X110.246 Y88.329 E.00375
G1 X110.246 Y95.171 E.21455
G1 X110.186 Y95.309 E.00469
G1 X110.057 Y95.36 E.00435
G1 X108.546 Y95.36 E.04739
G1 X108.546 Y116.141 E.65156
G1 X109.559 Y116.501 E.03373
G1 X110.746 Y117.214 E.04341
G1 X111.741 Y118.122 E.04223
G1 X112.53 Y119.194 E.04174
G1 X113.153 Y120.53 E.04623
G1 X113.46 Y121.841 E.04223
G1 X113.503 Y123.225 E.04341
G1 X113.27 Y124.59 E.04341
G1 X112.77 Y125.88 E.0434
G1 X111.999 Y127.075 E.04457
G1 X111.096 Y128.001 E.04056
G1 X109.881 Y128.836 E.04623
G1 X108.638 Y129.355 E.04223
G1 X107.281 Y129.627 E.0434
G1 X105.896 Y129.623 E.0434
G1 X104.541 Y129.342 E.0434
G1 X103.268 Y128.798 E.0434
G1 X102.101 Y127.985 E.04458
G1 X101.171 Y127.011 E.04222
G1 X100.431 Y125.842 E.0434
G1 X99.939 Y124.548 E.0434
G1 X99.714 Y123.182 E.0434
G1 X99.767 Y121.799 E.0434
G1 X100.078 Y120.505 E.04173
G1 X100.702 Y119.168 E.04624
G1 X101.51 Y118.088 E.0423
G1 X102.54 Y117.167 E.04333
G1 X103.734 Y116.468 E.0434
G1 X104.726 Y116.125 E.03288
G1 X104.726 Y95.36 E.65108
G1 X103.214 Y95.36 E.04739
G1 X103.07 Y95.293 E.005
G1 X103.026 Y95.171 E.00404
G1 X103.026 Y88.329 E.21455
G1 X103.078 Y88.198 E.00441
G1 X103.159 Y88.164 E.00276
M204 P1000
G1 X103.318 Y87.754 F9000
G1 E-2.24 F4200
;WIPE_START
G1 F7200
G1 X104.726 Y88.14 E-.86829
G1 X104.726 Y88.061 E-.04371
;WIPE_END
G1 E-.048 F4200
G1 Z.4 F720
G1 X143.64 Y95.563 F9000
G1 Z.2 F720
G1 E3.2 F2400
M204 P800
;TYPE:Perimeter
G1 F1200
G1 X143.572 Y95.638 E.00317
G1 X143.251 Y95.737 E.01051
G1 X142.117 Y95.737 E.03557
G1 X142.117 Y115.865 E.6311
G1 X142.947 Y116.165 E.02767
G1 X144.197 Y116.919 E.04576
G1 X145.196 Y117.822 E.04223
G1 X146.04 Y118.947 E.04408
G1 X146.732 Y120.417 E.05095
G1 X147.058 Y121.84 E.04577
G1 X147.094 Y123.299 E.04576
G1 X146.839 Y124.736 E.04576
G1 X146.303 Y126.093 E.04576
G1 X145.577 Y127.228 E.04223
G1 X144.523 Y128.318 E.04753
G1 X143.373 Y129.115 E.04387
G1 X142.03 Y129.695 E.04587
G1 X140.602 Y129.994 E.04576
G1 X139.03 Y129.991 E.04929
G1 X137.71 Y129.72 E.04223
G1 X136.264 Y129.103 E.0493
G1 X135.156 Y128.338 E.04222
G1 X134.136 Y127.294 E.04576
G1 X133.345 Y126.068 E.04576
G1 X133.138 Y125.559 E.01721
G1 X132.784 Y124.599 E.03209
G1 X132.557 Y123.157 E.04576
G1 X132.606 Y121.811 E.04222
G1 X132.922 Y120.442 E.04405
G1 X133.605 Y118.967 E.05099
G1 X134.408 Y117.885 E.04222
G1 X135.486 Y116.902 E.04576
G1 X136.739 Y116.154 E.04576
G1 X137.543 Y115.864 E.02678
G1 X137.543 Y95.737 E.63107
G1 X136.409 Y95.737 E.03557
G1 X136.093 Y95.641 E.01033
G1 X135.908 Y95.434 E.00873
G1 X135.843 Y95.171 E.00848
G1 X135.843 Y88.329 E.21455
G1 X135.914 Y88.054 E.00889
G1 X136.07 Y87.875 E.00745
G1 X136.192 Y87.806 E.00439
G1 X136.409 Y87.763 E.00692
G1 X137.543 Y87.763 E.03557
G1 X137.543 Y78.737 E.283
G1 X136.409 Y78.737 E.03557
G1 X136.192 Y78.694 E.00692
G1 X135.957 Y78.512 E.00932
G1 X135.853 Y78.279 E.00801
G1 X135.843 Y78.171 E.00337
G1 X135.843 Y71.329 E.21455
G1 X135.914 Y71.054 E.00889
G1 X136.07 Y70.875 E.00745
G1 X136.192 Y70.806 E.00439
G1 X136.409 Y70.763 E.00692
G1 X137.543 Y70.763 E.03557
G1 X137.543 Y61.737 E.283
G1 X136.409 Y61.737 E.03557
G1 X136.192 Y61.694 E.00692
G1 X135.957 Y61.512 E.00932
G1 X135.853 Y61.279 E.00801
G1 X135.843 Y61.171 E.00337
G1 X135.843 Y54.329 E.21455
G1 X135.885 Y54.114 E.00686
G1 X136 Y53.937 E.0066
G1 X136.192 Y53.806 E.0073
G1 X136.409 Y53.763 E.00692
G1 X137.543 Y53.763 E.03557
G1 X137.543 Y44.737 E.283
G1 X136.409 Y44.737 E.03557
G1 X136.192 Y44.694 E.00692
G1 X135.957 Y44.512 E.00932
G1 X135.853 Y44.279 E.00801
G1 X135.843 Y44.171 E.00337
G1 X135.843 Y37.329 E.21455
G1 X135.904 Y37.073 E.00825
G1 X136.089 Y36.862 E.0088
G1 X136.331 Y36.768 E.00813
G1 X143.251 Y36.763 E.21698
G1 X143.524 Y36.833 E.00882
G1 X143.712 Y37 E.0079
G1 X143.809 Y37.231 E.00783
G1 X143.817 Y44.171 E.21762
G1 X143.758 Y44.424 E.00814
G1 X143.59 Y44.625 E.00821
G1 X143.468 Y44.694 E.00439
G1 X143.251 Y44.737 E.00692
G1 X142.117 Y44.737 E.03557
G1 X142.117 Y53.763 E.283
G1 X143.251 Y53.763 E.03557
G1 X143.468 Y53.806 E.00692
G1 X143.703 Y53.988 E.00932
G1 X143.809 Y54.231 E.0083
G1 X143.817 Y54.329 E.00308
G1 X143.817 Y61.171 E.21455
G1 X143.758 Y61.424 E.00814
G1 X143.59 Y61.625 E.00821
G1 X143.468 Y61.694 E.00439
G1 X143.251 Y61.737 E.00692
G1 X142.117 Y61.737 E.03557
G1 X142.117 Y70.763 E.283
G1 X143.251 Y70.763 E.03557
G1 X143.468 Y70.806 E.00692
G1 X143.703 Y70.988 E.00932
G1 X143.809 Y71.231 E.0083
G1 X143.817 Y71.329 E.00308
G1 X143.817 Y78.171 E.21455
G1 X143.758 Y78.424 E.00814
G1 X143.59 Y78.625 E.00821
G1 X143.468 Y78.694 E.00439
G1 X143.251 Y78.737 E.00692
G1 X142.117 Y78.737 E.03557
G1 X142.117 Y87.763 E.283
G1 X143.251 Y87.763 E.03557
G1 X143.468 Y87.806 E.00692
G1 X143.703 Y87.988 E.00932
G1 X143.809 Y88.231 E.0083
G1 X143.817 Y95.171 E.21762
G1 X143.744 Y95.45 E.00904
G1 X143.681 Y95.519 E.00292
M204 P1000
G1 X143.382 Y95.307 F9000
M204 P800
;TYPE:External perimeter
G1 F1200
G1 X143.251 Y95.36 E.00442
G1 X141.74 Y95.36 E.04739
G1 X141.74 Y116.133 E.65133
G1 X142.755 Y116.49 E.03373
G1 X143.944 Y117.198 E.04341
G1 X144.943 Y118.102 E.04223
G1 X145.736 Y119.171 E.04174
G1 X146.365 Y120.504 E.04623
G1 X146.681 Y121.852 E.04341
G1 X146.723 Y123.236 E.04341
G1 X146.497 Y124.565 E.04226
G1 X146.002 Y125.856 E.04337
G1 X145.257 Y127.027 E.04351
G1 X144.308 Y128.008 E.04278
G1 X143.159 Y128.805 E.04387
G1 X141.884 Y129.347 E.04344
G1 X140.527 Y129.624 E.0434
G1 X139.106 Y129.621 E.04458
G1 X137.786 Y129.35 E.04223
G1 X136.479 Y128.792 E.04458
G1 X135.37 Y128.027 E.04222
G1 X134.408 Y127.032 E.0434
G1 X133.663 Y125.866 E.0434
G1 X133.373 Y125.116 E.02521
G1 X133.156 Y124.537 E.01937
G1 X132.934 Y123.171 E.0434
G1 X132.983 Y121.825 E.04222
G1 X133.289 Y120.53 E.04173
G1 X133.908 Y119.191 E.04624
G1 X134.713 Y118.108 E.04232
G1 X135.738 Y117.183 E.0433
G1 X136.93 Y116.479 E.0434
G1 X137.92 Y116.133 E.03288
G1 X137.92 Y95.36 E.65131
G1 X136.409 Y95.36 E.04739
G1 X136.264 Y95.293 E.005
G1 X136.22 Y95.171 E.00404
G1 X136.22 Y88.329 E.21455
G1 X136.272 Y88.198 E.00441
G1 X136.409 Y88.14 E.00464
G1 X137.92 Y88.14 E.04739
G1 X137.92 Y78.36 E.30664
G1 X136.409 Y78.36 E.04739
G1 X136.258 Y78.285 E.00527
G1 X136.22 Y78.171 E.00375
G1 X136.22 Y71.329 E.21455
G1 X136.272 Y71.198 E.00441
G1 X136.409 Y71.14 E.00464
G1 X137.92 Y71.14 E.04739
G1 X137.92 Y61.36 E.30664
G1 X136.409 Y61.36 E.04739
G1 X136.258 Y61.285 E.00527
G1 X136.22 Y61.171 E.00375
G1 X136.22 Y54.329 E.21455
G1 X136.234 Y54.257 E.00229
M73 P0 R248
G1 X136.336 Y54.154 E.00454
G1 X136.409 Y54.14 E.00231
G1 X137.92 Y54.14 E.04739
G1 X137.92 Y44.36 E.30664
G1 X136.409 Y44.36 E.04739
G1 X136.258 Y44.285 E.00527
G1 X136.22 Y44.171 E.00375
G1 X136.22 Y37.329 E.21455
G1 X136.284 Y37.187 E.00486
G1 X136.409 Y37.14 E.00418
G1 X143.251 Y37.14 E.21455
G1 X143.396 Y37.207 E.00498
G1 X143.44 Y37.329 E.00406
G1 X143.44 Y44.171 E.21455
G1 X143.388 Y44.302 E.00441
G1 X143.251 Y44.36 E.00464
G1 X141.74 Y44.36 E.04739
G1 X141.74 Y54.14 E.30664
G1 X143.251 Y54.14 E.04739
G1 X143.402 Y54.215 E.00527
G1 X143.44 Y54.329 E.00375
G1 X143.44 Y61.171 E.21455
G1 X143.388 Y61.302 E.00441
G1 X143.251 Y61.36 E.00464
G1 X141.74 Y61.36 E.04739
G1 X141.74 Y71.14 E.30664
G1 X143.251 Y71.14 E.04739
G1 X143.402 Y71.215 E.00527
G1 X143.44 Y71.329 E.00375
G1 X143.44 Y78.171 E.21455
G1 X143.388 Y78.302 E.00441
G1 X143.251 Y78.36 E.00464
G1 X141.74 Y78.36 E.04739
