; generated by PrusaSlicer 2.4.2+win64 on 2022-08-29 at 11:21:07 UTC


;
;

;
;
; 

; external perimeters extrusion width = 0.45mm
; perimeters extrusion width = 0.45mm
; infill extrusion width = 0.45mm
; solid infill extrusion width = 0.45mm
; top infill extrusion width = 0.40mm
; first layer extrusion width = 0.42mm

M73 P0 R209
M201 X2500 Y2500 Z400 E5000 ; sets maximum accelerations, mm/sec^2
M203 X180 Y180 Z12 E80 ; sets maximum feedrates, mm / sec
M204 P1250 R1250 T2500 ; sets acceleration (P, T) and retract acceleration (R), mm/sec^2
M205 X8.00 Y8.00 Z2.00 E10.00 ; sets the jerk limits, mm/sec
M205 S0 T0 ; sets the minimum extruding and travel feed rate, mm/sec
M107
;TYPE:Custom
M862.3 P "MINI" ; printer model check
G90 ; use absolute coordinates
M83 ; extruder relative mode
M104 S170 ; set extruder temp for bed leveling
M140 S60 ; set bed temp
M109 R170 ; wait for bed leveling temp
M190 S60 ; wait for bed temp
M204 T1250 ; set travel acceleration
G28 ; home all without mesh bed level
G29 ; mesh bed leveling 
M204 T2500 ; restore travel acceleration
M104 S215 ; set extruder temp
G92 E0
G1 Y-2 X179 F2400
G1 Z3 F720
M109 S215 ; wait for extruder temp

; intro line
G1 X170 F1000
G1 Z0.2 F720
G1 X110 E8 F900
G1 X40 E10 F700
G92 E0

M221 S95 ; set flow
G21 ; set units to millimeters
G90 ; use absolute coordinates
M83 ; use relative distances for extrusion
M900 K0.2 ; Filament gcode LA 1.5
; ; Filament gcode LA 1.0
M107
;LAYER_CHANGE
;Z:0.2
;HEIGHT:0.2
;BEFORE_LAYER_CHANGE
G92 E0.0
;0.2


G1 E-3.2 F4200
G1 Z.2 F720
;AFTER_LAYER_CHANGE
;0.2
G1 Z.4
G1 X16.106 Y11.368 F9000
G1 Z.2 F720
G1 E3.2 F2400
M204 P800
;TYPE:Skirt/Brim
;WIDTH:0.42
G1 F1200
G1 X17.152 Y10.492 E.04278
G1 X18.092 Y10.298 E.03008
G1 X161.908 Y10.298 E4.50927
G1 X163.215 Y10.69 E.04278
G1 X164.092 Y11.735 E.04278
G1 X164.285 Y12.675 E.03008
G1 X164.285 Y167.325 E4.84894
G1 X163.894 Y168.632 E.04278
G1 X162.848 Y169.508 E.04278
G1 X161.908 Y169.702 E.03008
G1 X18.092 Y169.702 E4.50927
G1 X16.785 Y169.31 E.04278
G1 X15.908 Y168.265 E.04278
G1 X15.715 Y167.325 E.03008
M73 P0 R208
G1 X15.715 Y12.675 E4.84894
G1 X16.089 Y11.425 E.0409
M204 P1000
; printing object Modul001.stl id:0 copy 0
G1 E-2.24 F4200
;WIPE_START
G1 F7200
G1 X17.152 Y10.492 E-.78411
G1 X17.378 Y10.445 E-.12789
;WIPE_END
G1 E-.048 F4200
G1 Z.4 F720
G1 X82.855 Y104.182 F9000
G1 Z.2 F720
G1 E3.2 F2400
M204 P800
;TYPE:Perimeter
G1 F1200
G1 X82.1 Y106.402 E.07353
G1 X78.895 Y106.402 E.10049
G1 X79.649 Y104.184 E.07347
G1 X82.795 Y104.182 E.09863
M204 P1000
G1 E-2.24 F4200
;WIPE_START
G1 F7200
G1 X82.304 Y105.753 E-.912
;WIPE_END
G1 E-.048 F4200
G1 Z.4 F720
G1 X115.071 Y143.187 F9000
G1 Z.2 F720
G1 E3.2 F2400
M204 P800
G1 F1200
G1 X114.403 Y145.147 E.06493
G1 X114.233 Y145.579 E.01458
G1 X113.878 Y146.254 E.0239
G1 X114.015 Y145.762 E.01602
G1 X114.627 Y143.945 E.0601
G1 X114.758 Y143.42 E.01698
G1 X114.802 Y143.085 E.01059
G1 X115.015 Y143.165 E.00715
M204 P1000
G1 E-2.24 F4200
;WIPE_START
G1 F7200
G1 X114.529 Y144.738 E-.912
;WIPE_END
G1 E-.048 F4200
G1 Z.4 F720
G1 X84.622 Y98.609 F9000
G1 Z.2 F720
G1 E3.2 F2400
M204 P800
G1 F1200
G1 X89.838 Y98.606 E.16354
G1 X91.486 Y98.639 E.05169
G1 X92.747 Y98.742 E.03967
G1 X94.077 Y98.91 E.04204
G1 X94.753 Y99.173 E.02273
G1 X95.093 Y99.353 E.01206
G1 X95.419 Y99.593 E.01271
G1 X95.696 Y99.89 E.01271
G1 X95.914 Y100.206 E.01206
G1 X96.281 Y100.896 E.02449
G1 X96.401 Y102.054 E.03648
G1 X96.361 Y103.12 E.03346
G1 X96.128 Y104.153 E.03321
G1 X95.505 Y105.986 E.0607
G1 X95.118 Y106.879 E.03052
G1 X94.612 Y107.718 E.0307
G1 X93.962 Y108.583 E.03394
G1 X93.148 Y109.074 E.0298
G1 X92.731 Y109.193 E.0136
G1 X93.139 Y109.513 E.01628
G1 X93.375 Y109.966 E.01601
G1 X93.515 Y110.372 E.01347
G1 X93.574 Y110.789 E.01321
G1 X93.586 Y111.244 E.01424
G1 X93.38 Y112.109 E.02788
G1 X93.165 Y112.882 E.02517
G1 X92.92 Y113.638 E.02492
G1 X90.692 Y120.182 E.21674
G1 X77.417 Y120.182 E.41621
G1 X80.272 Y111.781 E.27818
G1 X77.067 Y111.781 E.10049
G1 X74.213 Y120.182 E.27818
G1 X67.349 Y120.182 E.21519
G1 X74.681 Y98.607 E.71444
G1 X84.562 Y98.609 E.30982
M204 P1000
G1 X85.02 Y98.985 F9000
M204 P800
;TYPE:External perimeter
G1 F1200
G1 X89.834 Y98.984 E.15097
G1 X91.467 Y99.016 E.05121
G1 X92.708 Y99.117 E.03904
G1 X93.984 Y99.278 E.04031
G1 X94.596 Y99.517 E.02059
G1 X94.892 Y99.673 E.01051
G1 X95.168 Y99.876 E.01074
G1 X95.401 Y100.127 E.01074
G1 X95.591 Y100.403 E.0105
G1 X95.913 Y101.008 E.02151
G1 X96.023 Y102.066 E.03334
G1 X95.986 Y103.071 E.03152
G1 X95.764 Y104.05 E.03149
G1 X95.153 Y105.85 E.05959
G1 X94.782 Y106.706 E.02925
G1 X94.299 Y107.506 E.02931
G1 X93.704 Y108.298 E.03105
G1 X92.996 Y108.725 E.02594
G1 X92.605 Y108.837 E.01274
G1 X92.242 Y108.895 E.01154
G1 X91.69 Y109.033 E.01783
G1 X91.888 Y109.117 E.00674
G1 X92.098 Y109.274 E.00823
G1 X92.568 Y109.534 E.01685
G1 X92.841 Y109.757 E.01103
G1 X93.028 Y110.116 E.0127
G1 X93.147 Y110.461 E.01146
G1 X93.198 Y110.821 E.01139
G1 X93.208 Y111.204 E.01202
G1 X93.015 Y112.015 E.02612
G1 X92.804 Y112.773 E.0247
G1 X92.563 Y113.519 E.02458
G1 X90.422 Y119.804 E.20819
G1 X84.725 Y119.804 E.17861
G1 X87.34 Y112.138 E.25397
G1 X87.473 Y111.682 E.01489
G1 X87.547 Y111.228 E.01441
G1 X87.56 Y110.938 E.00912
G1 X87.488 Y110.875 E.00301
G1 X87.352 Y110.809 E.00475
G1 X87.104 Y110.779 E.00782
G1 X87.078 Y110.779 E.00083
G1 X84.01 Y119.804 E.29887
G1 X77.944 Y119.804 E.19022
G1 X85 Y99.042 E.68757
M204 P1000
G1 X85.026 Y98.585 F9000
G1 X84.622 Y98.987
M204 P800
G1 F1200
G1 X82.985 Y103.805 E.15956
G1 X79.379 Y103.807 E.11305
G1 X78.369 Y106.779 E.09844
G1 X81.581 Y106.779 E.10071
G1 X81.332 Y107.512 E.02425
G1 X80.009 Y111.404 E.12891
G1 X76.797 Y111.404 E.10071
G1 X73.942 Y119.804 E.27818
G1 X67.876 Y119.804 E.19022
G1 X74.951 Y98.984 E.68946
G1 X84.562 Y98.987 E.30135
M204 P1000
G1 X85.021 Y98.955 F9000
G1 E-2.24 F4200
;WIPE_START
G1 F7200
G1 X84.05 Y100.551 E-.912
;WIPE_END
G1 E-.048 F4200
G1 Z.4 F720
G1 X108.709 Y98.607 F9000
G1 Z.2 F720
G1 E3.2 F2400
M204 P800
;TYPE:Perimeter
G1 F1200
G1 X106.814 Y104.184 E.18467
G1 X103.343 Y104.184 E.10884
G1 X102.589 Y106.402 E.07346
G1 X105.838 Y106.402 E.10187
G1 X104.01 Y111.781 E.17813
G1 X100.761 Y111.781 E.10187
G1 X99.801 Y114.605 E.09351
G1 X103.451 Y114.605 E.11442
G1 X108.887 Y98.607 E.52976
G1 X117.126 Y98.607 E.25833
G1 X116.557 Y101.675 E.09781
G1 X116.37 Y102.592 E.02937
G1 X118.23 Y98.607 E.13789
G1 X126.597 Y98.607 E.26232
G1 X119.265 Y120.182 E.71444
G1 X113.054 Y120.182 E.19473
G1 X113.63 Y118.503 E.05563
G1 X112.838 Y120.182 E.05819
G1 X108.158 Y120.182 E.14674
G1 X108.709 Y117.39 E.08922
G1 X107.765 Y120.182 E.0924
G1 X91.043 Y120.182 E.5243
G1 X98.375 Y98.607 E.71444
G1 X108.649 Y98.607 E.32215
M204 P1000
G1 X108.183 Y98.984 F9000
M204 P800
;TYPE:External perimeter
G1 F1200
G1 X106.544 Y103.807 E.1597
G1 X103.073 Y103.807 E.10884
G1 X102.063 Y106.779 E.09843
G1 X105.311 Y106.779 E.10187
G1 X103.74 Y111.404 E.15315
G1 X100.491 Y111.404 E.10187
G1 X99.275 Y114.982 E.11848
G1 X103.092 Y114.982 E.11968
G1 X101.453 Y119.804 E.1597
G1 X91.569 Y119.804 E.3099
G1 X98.645 Y98.984 E.68946
G1 X108.123 Y98.984 E.29718
M204 P1000
G1 X108.582 Y98.952 F9000
G1 E-2.24 F4200
;WIPE_START
G1 F7200
G1 X107.611 Y100.549 E-.912
;WIPE_END
G1 E-.048 F4200
G1 Z.4 F720
G1 X114.896 Y107.098 F9000
G1 Z.2 F720
G1 E3.2 F2400
M204 P800
G1 F1200
G1 X115.419 Y105.98 E.03872
G1 X115.606 Y105.538 E.01505
G1 X116.085 Y104.136 E.04646
G1 X116.282 Y103.673 E.01576
G1 X118.471 Y98.984 E.16224
G1 X126.07 Y98.984 E.23829
G1 X118.995 Y119.804 E.68946
G1 X113.582 Y119.804 E.16971
G1 X115.045 Y115.536 E.14147
G1 X116.328 Y112.338 E.10806
G1 X117.366 Y109.28 E.10125
G1 X115.946 Y112.279 E.10405
G1 X114.624 Y115.51 E.10947
G1 X112.599 Y119.804 E.14886
G1 X108.617 Y119.804 E.12486
G1 X109.582 Y114.913 E.15631
G1 X110.337 Y112.017 E.09384
G1 X110.882 Y109.233 E.08896
G1 X109.971 Y111.918 E.08891
G1 X109.185 Y114.805 E.09381
G1 X107.494 Y119.804 E.16547
G1 X102.082 Y119.804 E.1697
G1 X109.157 Y98.984 E.68946
G1 X116.673 Y98.984 E.23564
G1 X116.187 Y101.602 E.08348
G1 X115.825 Y103.379 E.05685
G1 X115.624 Y104.196 E.02639
G1 X115.198 Y105.548 E.04444
G1 X114.907 Y107.039 E.04763
M204 P1000
G1 X115.042 Y106.726 F9000
G1 E-2.24 F4200
;WIPE_START
G1 F7200
G1 X115.419 Y105.98 E-.65207
G1 X115.601 Y105.548 E-.25993
;WIPE_END
G1 E-.048 F4200
G1 Z.4 F720
G1 X119.69 Y120.182 F9000
G1 Z.2 F720
G1 E3.2 F2400
M204 P800
;TYPE:Perimeter
G1 F1200
G1 X127.022 Y98.608 E.71446
G1 X132.339 Y98.606 E.16672
G1 X134.026 Y98.646 E.0529
G1 X135.316 Y98.771 E.04066
G1 X136.647 Y98.973 E.0422
G1 X137.257 Y99.189 E.02026
G1 X137.841 Y99.488 E.02059
G1 X138.338 Y99.931 E.02086
G1 X138.776 Y100.475 E.02191
G1 X139.007 Y101.055 E.01959
G1 X139.153 Y101.617 E.01818
G1 X139.178 Y102.194 E.01812
G1 X139.135 Y102.761 E.01782
G1 X138.883 Y103.801 E.03357
G1 X138.611 Y104.785 E.03202
G1 X138.302 Y105.753 E.03187
G1 X136.077 Y112.294 E.21661
G1 X142.544 Y98.607 E.47462
G1 X151.512 Y98.607 E.28117
G1 X147.388 Y120.182 E.68869
G1 X140.402 Y120.182 E.21904
G1 X141.345 Y116.587 E.11652
G1 X141.024 Y116.587 E.01005
G1 X139.49 Y120.182 E.12255
G1 X132.351 Y120.182 E.22384
G1 X133.09 Y118.617 E.05427
G1 X132.91 Y118.78 E.00763
G1 X132.44 Y119.135 E.01847
G1 X131.94 Y119.413 E.01793
G1 X131.434 Y119.648 E.0175
G1 X130.905 Y119.824 E.01747
G1 X130.363 Y119.964 E.01756
G1 X129.591 Y120.072 E.02445
G1 X128.838 Y120.145 E.02371
G1 X128.084 Y120.175 E.02366
G1 X119.75 Y120.182 E.26131
M204 P1000
G1 X120.216 Y119.805 F9000
M204 P800
;TYPE:External perimeter
G1 F1200
G1 X127.292 Y98.985 E.68947
G1 X132.335 Y98.983 E.15811
G1 X134.003 Y99.023 E.05232
G1 X135.27 Y99.145 E.03991
G1 X136.555 Y99.341 E.04076
G1 X137.107 Y99.536 E.01835
G1 X137.626 Y99.802 E.01829
G1 X138.063 Y100.192 E.01838
G1 X138.447 Y100.668 E.01915
G1 X138.648 Y101.173 E.01706
G1 X138.778 Y101.673 E.01619
G1 X138.801 Y102.188 E.01616
G1 X138.762 Y102.701 E.01615
G1 X138.518 Y103.706 E.03242
G1 X138.249 Y104.677 E.0316
G1 X137.944 Y105.635 E.03153
G1 X134.924 Y114.514 E.29403
G1 X134.577 Y115.443 E.03111
G1 X134.171 Y116.349 E.03113
G1 X133.729 Y117.262 E.03179
G1 X133.415 Y117.711 E.01717
G1 X133.07 Y118.126 E.01694
G1 X132.669 Y118.489 E.01696
G1 X132.234 Y118.819 E.01711
G1 X131.769 Y119.076 E.01667
G1 X131.295 Y119.297 E.0164
G1 X130.798 Y119.462 E.01639
G1 X130.29 Y119.593 E.01648
G1 X129.546 Y119.697 E.02353
G1 X128.812 Y119.769 E.02312
G1 X128.076 Y119.798 E.02309
G1 X120.276 Y119.805 E.24456
M204 P1000
G1 X119.826 Y119.719 F9000
G1 E-2.24 F4200
;WIPE_START
G1 F7200
G1 X120.802 Y118.245 E-.912
;WIPE_END
G1 E-.048 F4200
G1 Z.4 F720
G1 X132.946 Y119.804 F9000
G1 Z.2 F720
G1 E3.2 F2400
M204 P800
G1 F1200
G1 X142.783 Y98.984 E.72199
G1 X151.056 Y98.984 E.25938
G1 X147.076 Y119.804 E.66461
G1 X140.891 Y119.804 E.19394
G1 X141.833 Y116.21 E.11652
G1 X140.775 Y116.21 E.03318
G1 X139.241 Y119.804 E.12255
G1 X133.006 Y119.804 E.19549
M204 P1000
G1 X132.55 Y119.744 F9000
G1 E-2.24 F4200
;WIPE_START
G1 F7200
G1 X133.705 Y118.315 E-.912
;WIPE_END
G1 E-.048 F4200
G1 Z.4 F720
G1 X132.639 Y129.466 F9000
M73 P0 R207
G1 Z.2 F720
G1 E3.2 F2400
M204 P800
;TYPE:Perimeter
G1 F1200
G1 X131.421 Y134.741 E.16974
G1 X133.716 Y129.466 E.18037
G1 X140.959 Y129.466 E.22709
G1 X139.729 Y132.069 E.09027
G1 X140.352 Y131.406 E.02852
G1 X140.995 Y130.872 E.02621
G1 X141.674 Y130.389 E.02614
G1 X142.408 Y129.993 E.02613
G1 X143.172 Y129.651 E.02626
G1 X144.014 Y129.39 E.02764
G1 X144.865 Y129.19 E.02741
G1 X145.733 Y129.088 E.02739
G1 X146.602 Y129.045 E.02727
G1 X147.365 Y129.078 E.02396
G1 X148.136 Y129.17 E.02433
G1 X148.89 Y129.369 E.02445
G1 X149.651 Y129.644 E.02536
G1 X150.249 Y130.005 E.02191
G1 X150.795 Y130.446 E.02201
G1 X151.22 Y131.007 E.02206
G1 X151.565 Y131.632 E.02238
G1 X151.761 Y132.326 E.02261
G1 X151.872 Y133.013 E.02183
G1 X151.85 Y133.707 E.02176
G1 X151.754 Y134.376 E.02121
G1 X151.447 Y135.523 E.03723
G1 X151.124 Y136.627 E.03606
G1 X150.771 Y137.719 E.03598
G1 X148.873 Y143.301 E.18489
G1 X148.483 Y144.392 E.0363
G1 X147.619 Y146.566 E.07336
G1 X147.245 Y147.261 E.02474
G1 X146.821 Y147.924 E.02469
G1 X146.32 Y148.53 E.02466
G1 X145.775 Y149.1 E.02473
G1 X145.132 Y149.634 E.02621
G1 X144.452 Y150.117 E.02614
G1 X143.718 Y150.513 E.02613
G1 X142.954 Y150.855 E.02626
G1 X142.112 Y151.116 E.02764
G1 X141.261 Y151.316 E.02741
G1 X140.393 Y151.418 E.02739
G1 X139.525 Y151.461 E.02727
G1 X138.761 Y151.428 E.02397
G1 X137.991 Y151.336 E.02433
G1 X137.236 Y151.137 E.02445
G1 X136.476 Y150.862 E.02537
G1 X135.877 Y150.501 E.02191
G1 X135.332 Y150.06 E.02201
G1 X134.907 Y149.499 E.02206
G1 X134.562 Y148.874 E.02238
G1 X134.365 Y148.18 E.02261
G1 X134.255 Y147.493 E.02183
G1 X134.277 Y146.799 E.02176
G1 X134.372 Y146.13 E.02121
G1 X134.68 Y144.983 E.03722
G1 X135.003 Y143.877 E.03612
G1 X135.72 Y141.713 E.07148
G1 X137.123 Y137.59 E.13654
G1 X130.772 Y151.04 E.46636
G1 X121.423 Y151.04 E.29313
G1 X124.441 Y135.119 E.50808
G1 X124.184 Y136.06 E.03057
G1 X123.399 Y138.403 E.07747
G1 X116.538 Y138.403 E.21512
G1 X117.701 Y134.949 E.11426
G1 X116.633 Y138.046 E.10271
G1 X116.43 Y138.538 E.01669
G1 X116.254 Y138.864 E.01162
G1 X116.452 Y138.808 E.00645
G1 X117 Y138.742 E.01732
G1 X123.288 Y138.729 E.19716
G1 X119.104 Y151.041 E.4077
G1 X116.191 Y151.036 E.09133
G1 X115.691 Y151.012 E.01571
G1 X114.473 Y150.87 E.03844
G1 X114.564 Y150.381 E.01558
G1 X114.422 Y150.517 E.00617
G1 X113.816 Y150.913 E.02269
G1 X113.225 Y151.151 E.01999
G1 X112.63 Y151.329 E.01947
G1 X112.017 Y151.421 E.01943
G1 X111.396 Y151.462 E.01953
G1 X110.706 Y151.413 E.02168
G1 X110.014 Y151.288 E.02205
G1 X109.356 Y151.032 E.02214
G1 X108.723 Y150.696 E.02248
G1 X108.229 Y150.295 E.01993
G1 X107.79 Y149.837 E.01991
G1 X107.46 Y149.291 E.02
G1 X107.204 Y148.7 E.02018
G1 X107.079 Y148.096 E.01935
G1 X107.013 Y147.51 E.0185
G1 X107.037 Y146.921 E.01847
G1 X107.111 Y146.343 E.01827
G1 X107.535 Y144.713 E.05281
G1 X107.784 Y143.918 E.02613
G1 X110.064 Y137.2 E.22244
G1 X110.439 Y136.12 E.03583
G1 X110.85 Y135.035 E.03637
G1 X111.321 Y133.971 E.03649
G1 X111.859 Y132.877 E.03823
G1 X112.466 Y132.075 E.03154
G1 X113.136 Y131.357 E.0308
G1 X113.908 Y130.757 E.03065
G1 X114.729 Y130.225 E.03068
G1 X115.8 Y129.719 E.03714
G1 X116.917 Y129.326 E.03712
G1 X118.083 Y129.128 E.03709
G1 X119.257 Y129.045 E.03688
G1 X120.269 Y129.09 E.03179
G1 X121.288 Y129.249 E.03233
G1 X122.259 Y129.615 E.03253
G1 X123.209 Y130.131 E.03389
G1 X123.812 Y130.71 E.02623
G1 X124.29 Y131.344 E.02487
G1 X124.478 Y131.763 E.01442
G1 X124.597 Y132.166 E.01317
G1 X124.741 Y132.972 E.02566
G1 X124.628 Y134.068 E.03455
G1 X124.491 Y134.855 E.02505
G1 X125.513 Y129.466 E.17199
G1 X132.579 Y129.466 E.22153
M204 P1000
G1 E-2.24 F4200
;WIPE_START
G1 F7200
G1 X132.226 Y131.073 E-.912
;WIPE_END
G1 E-.048 F4200
G1 Z.4 F720
G1 X118.413 Y133.674 F9000
G1 Z.2 F720
G1 E3.2 F2400
M204 P800
;TYPE:External perimeter
G1 F1200
G1 X118.403 Y133.642 E.00104
G1 X118.283 Y133.63 E.00379
G1 X118.137 Y133.649 E.00461
G1 X118.014 Y133.686 E.00404
G1 X117.923 Y133.748 E.00343
G1 X117.825 Y133.842 E.00428
G1 X117.61 Y134.229 E.01388
G1 X117.403 Y134.672 E.01532
G1 X117.228 Y135.135 E.01554
G1 X116.28 Y137.913 E.09201
G1 X116.089 Y138.376 E.01571
G1 X115.627 Y139.232 E.03048
G1 X114.549 Y142.403 E.10502
G1 X114.451 Y142.858 E.01459
G1 X114.387 Y143.349 E.01554
G1 X114.264 Y143.839 E.01583
G1 X113.655 Y145.648 E.05984
G1 X113.533 Y146.061 E.01351
G1 X113.448 Y146.475 E.01326
G1 X113.404 Y146.821 E.01093
G1 X113.418 Y146.862 E.00137
G1 X113.522 Y146.874 E.00329
G1 X113.805 Y146.823 E.00901
G1 X113.929 Y146.758 E.00439
G1 X114.14 Y146.555 E.0092
G1 X114.364 Y146.166 E.01407
G1 X114.578 Y145.732 E.01517
G1 X114.757 Y145.277 E.01534
G1 X115.561 Y142.919 E.07811
G1 X115.365 Y142.895 E.00618
G1 X114.802 Y142.682 E.01889
G1 X115.935 Y139.346 E.11046
G1 X116.526 Y139.179 E.01924
G1 X117.023 Y139.119 E.0157
G1 X122.761 Y139.107 E.17993
G1 X118.834 Y150.663 E.38268
G1 X116.201 Y150.659 E.08257
G1 X115.722 Y150.636 E.01503
G1 X114.918 Y150.542 E.02538
G1 X115.064 Y149.756 E.02508
